<?xml version="1.0"?>
<VTKFile type="ImageData" version="1.0" byte_order="LittleEndian">
<ImageData WholeExtent="0 64 0 64 0 0"
             Origin="0 0 0.0"
             Spacing="0.015625 0.015625 1.0">
<Piece Extent="0 64 0 64 0 0">
<CellData>
  <DataArray type="Float64" Name="temperature" format="ascii">
0.988982 0.920919 0.879597 0.850339 0.827523 0.808619 0.79234 0.777968 0.765073 0.753377 0.742695 0.732896 0.723883 0.715584 0.707943 0.700912 0.694455 0.68854 0.68314 0.678234 0.6738 0.669823 0.666287 0.66318 0.66049 0.65821 0.65633 0.654845 0.653752 0.653046 0.652728 0.652796 0.653247 0.654075 0.655275 0.656845 0.658787 0.661107 0.663812 0.666914 0.670427 0.674372 0.678771 0.683653 0.689053 0.695011 0.70158 0.708822 0.716814 0.725652 0.735458 0.746391 0.758653 0.772506 0.78826 0.806189 0.826222 0.847104 0.864511 0.867721 0.835492 0.734553 0.527669 0.197433
1.02501 0.975362 0.938702 0.909686 0.885436 0.864398 0.845685 0.828767 0.813304 0.79907 0.785904 0.773688 0.762333 0.751766 0.741929 0.732772 0.724251 0.716331 0.708975 0.702156 0.695847 0.690022 0.68466 0.679741 0.675249 0.671167 0.667481 0.664181 0.661257 0.6587 0.656504 0.654663 0.653154 0.651965 0.6511 0.650564 0.650367 0.650518 0.651029 0.651915 0.653194 0.654886 0.657018 0.659617 0.662721 0.66637 0.670614 0.675516 0.681149 0.687607 0.695006 0.703496 0.71327 0.724574 0.737699 0.752901 0.770121 0.788195 0.803123 0.804994 0.77419 0.680014 0.488147 0.18257
1.03551 0.995321 0.961632 0.93258 0.906909 0.883826 0.862825 0.843573 0.825838 0.80945 0.794281 0.780228 0.767204 0.755135 0.743956 0.733608 0.724036 0.715191 0.707027 0.699501 0.692574 0.686209 0.680373 0.675034 0.670164 0.665736 0.661727 0.658115 0.654881 0.652009 0.649481 0.647281 0.645358 0.643681 0.642257 0.641096 0.640208 0.639604 0.639298 0.639306 0.639646 0.64034 0.641413 0.642895 0.644821 0.647232 0.650179 0.653723 0.657935 0.662908 0.668756 0.675624 0.683699 0.693219 0.704463 0.717678 0.732811 0.748763 0.761754 0.76243 0.732307 0.642507 0.460808 0.172248
1.03677 0.997562 0.962922 0.93185 0.903674 0.87794 0.854333 0.832628 0.812649 0.794257 0.777334 0.761775 0.747487 0.734381 0.722378 0.711401 0.701378 0.692243 0.683933 0.676389 0.669556 0.663383 0.657823 0.652832 0.648371 0.644402 0.640892 0.63781 0.635129 0.632823 0.630868 0.629235 0.627859 0.626691 0.625731 0.624983 0.62445 0.624139 0.624058 0.624219 0.624635 0.625325 0.626309 0.627616 0.629276 0.631329 0.633824 0.636817 0.640382 0.644606 0.649601 0.655511 0.662517 0.670853 0.68079 0.69257 0.706143 0.720456 0.731887 0.731491 0.701631 0.614818 0.440477 0.164532
1.03436 0.991616 0.953335 0.918641 0.886997 0.858047 0.831534 0.807259 0.785056 0.764782 0.746301 0.729491 0.714233 0.700415 0.687929 0.676674 0.666555 0.657482 0.649371 0.642145 0.635731 0.630065 0.625085 0.620738 0.616974 0.613747 0.611017 0.608748 0.606906 0.605462 0.604388 0.603652 0.603191 0.60295 0.60292 0.603092 0.603458 0.604015 0.604762 0.605698 0.60683 0.608167 0.609722 0.611513 0.613567 0.615915 0.6186 0.621673 0.625201 0.629268 0.633982 0.63948 0.645941 0.653591 0.662696 0.673493 0.685932 0.698991 0.709164 0.707817 0.677977 0.593281 0.424528 0.158441
1.0305 0.982273 0.939072 0.899957 0.864381 0.831986 0.802508 0.775732 0.751468 0.72954 0.709779 0.692022 0.676113 0.661903 0.649247 0.638011 0.628069 0.619304 0.611607 0.604881 0.599035 0.59399 0.589674 0.586022 0.582976 0.580488 0.578512 0.577009 0.575947 0.575294 0.575026 0.575114 0.575512 0.576177 0.577091 0.578236 0.579594 0.581152 0.582898 0.584823 0.586922 0.589192 0.591635 0.594259 0.59708 0.600117 0.603402 0.606978 0.6109 0.615244 0.620108 0.625622 0.631955 0.639325 0.647991 0.658181 0.669841 0.681967 0.691135 0.688954 0.658992 0.575837 0.411488 0.153427
1.02607 0.971713 0.923174 0.879418 0.839852 0.804085 0.77182 0.7428 0.71679 0.693565 0.672901 0.654585 0.638408 0.624172 0.611687 0.60078 0.591287 0.583061 0.575968 0.569887 0.564711 0.560346 0.556708 0.553726 0.551336 0.549487 0.548131 0.547232 0.546758 0.546681 0.546981 0.54764 0.548638 0.549953 0.551564 0.553451 0.555595 0.557978 0.560581 0.56339 0.566391 0.569573 0.572927 0.576451 0.580145 0.584019 0.588089 0.592384 0.596947 0.601836 0.607138 0.612967 0.619481 0.626884 0.635423 0.64531 0.656484 0.667945 0.676325 0.67342 0.643252 0.561237 0.400463 0.149157
1.02142 0.960839 0.906948 0.858631 0.815247 0.776362 0.741631 0.710745 0.683406 0.659322 0.638202 0.619766 0.603742 0.589873 0.577919 0.567659 0.558892 0.551436 0.545131 0.539836 0.535426 0.531793 0.528847 0.526508 0.524712 0.523403 0.522537 0.522079 0.521999 0.522278 0.522899 0.523856 0.525157 0.526804 0.52878 0.531073 0.533666 0.536546 0.539696 0.543102 0.546748 0.550619 0.554701 0.558982 0.563455 0.568115 0.572965 0.578018 0.5833 0.588854 0.594744 0.601069 0.607967 0.615624 0.624267 0.634091 0.645014 0.656029 0.6638 0.660269 0.629844 0.54868 0.390882 0.145417
1.01669 0.949986 0.89089 0.838219 0.791289 0.749622 0.712818 0.680499 0.652289 0.627815 0.606704 0.588595 0.573143 0.560024 0.548942 0.539626 0.531835 0.525357 0.520004 0.515616 0.512054 0.509201 0.50696 0.505248 0.503999 0.503159 0.502686 0.502546 0.502717 0.503182 0.503934 0.504975 0.506335 0.508037 0.510077 0.512451 0.515154 0.518182 0.521528 0.525184 0.52914 0.533385 0.537904 0.542686 0.547715 0.552979 0.558472 0.564191 0.570144 0.576357 0.582873 0.589769 0.597159 0.605206 0.614111 0.624045 0.634897 0.645641 0.652949 0.648875 0.618156 0.537627 0.382359 0.142064
1.01192 0.939268 0.875166 0.818389 0.76822 0.724136 0.685671 0.652366 0.62375 0.599349 0.578694 0.56133 0.546831 0.5348 0.524881 0.516755 0.51014 0.504795 0.500511 0.497111 0.494448 0.492399 0.490862 0.489756 0.489016 0.48859 0.488439 0.488536 0.488862 0.489405 0.490164 0.491148 0.492403 0.493967 0.495848 0.498055 0.500595 0.503478 0.506711 0.510298 0.514241 0.518538 0.523183 0.528167 0.533478 0.539101 0.545023 0.551232 0.557723 0.564503 0.571595 0.579052 0.586964 0.595464 0.604726 0.614885 0.625798 0.636402 0.643361 0.638806 0.607764 0.527703 0.374624 0.138997
1.00713 0.928715 0.859817 0.79919 0.746096 0.699965 0.660254 0.626401 0.597824 0.57393 0.554137 0.537888 0.524664 0.513995 0.505462 0.498699 0.493391 0.48927 0.486111 0.483728 0.481969 0.480708 0.479848 0.479309 0.479031 0.478968 0.479085 0.47936 0.479779 0.480336 0.481033 0.481885 0.482944 0.484259 0.485846 0.487727 0.489923 0.492457 0.495349 0.498621 0.502288 0.506364 0.510855 0.515763 0.521084 0.526808 0.532921 0.539409 0.546257 0.553459 0.56102 0.56897 0.577373 0.586333 0.59599 0.606442 0.617501 0.628059 0.63475 0.62976 0.598368 0.518638 0.367483 0.136146
1.00232 0.918334 0.844847 0.780624 0.724917 0.677104 0.636547 0.602567 0.574444 0.55145 0.532874 0.518045 0.506349 0.49724 0.49024 0.484939 0.480994 0.478119 0.476079 0.474686 0.473786 0.473262 0.473019 0.472987 0.473111 0.473353 0.473686 0.474092 0.474563 0.475096 0.475698 0.476386 0.477214 0.478232 0.479466 0.480945 0.4827 0.484768 0.487182 0.489978 0.493189 0.496843 0.500965 0.50557 0.510667 0.516259 0.522338 0.528892 0.535904 0.543359 0.551251 0.559589 0.568412 0.577797 0.587846 0.598617 0.609871 0.620442 0.626921 0.621519 0.589746 0.510233 0.360794 0.133455
0.997501 0.908126 0.830249 0.762678 0.704664 0.655523 0.614508 0.580794 0.553505 0.531755 0.514691 0.501521 0.491534 0.484106 0.478709 0.474896 0.472303 0.470633 0.46965 0.469169 0.469045 0.469169 0.469458 0.469851 0.470304 0.470787 0.471282 0.471776 0.472267 0.472756 0.473252 0.473773 0.474369 0.475089 0.475962 0.477024 0.478312 0.479872 0.481748 0.48399 0.486643 0.489753 0.493361 0.497501 0.502198 0.507471 0.513323 0.519752 0.526746 0.534287 0.542362 0.550965 0.560115 0.56986 0.580269 0.591353 0.60282 0.613435 0.61973 0.613926 0.581734 0.502339 0.354449 0.130887
0.992674 0.898088 0.816015 0.745339 0.685316 0.635191 0.594086 0.561004 0.534886 0.514672 0.499353 0.488013 0.479841 0.474146 0.470352 0.467987 0.466675 0.466117 0.466084 0.466401 0.466938 0.467599 0.468316 0.46904 0.46974 0.470396 0.470997 0.47154 0.472025 0.472457 0.472848 0.473215 0.4736 0.474047 0.474588 0.475259 0.476103 0.477168 0.478508 0.48018 0.482242 0.484754 0.487773 0.491351 0.495531 0.50035 0.505829 0.511979 0.518798 0.526274 0.534389 0.543133 0.552506 0.562532 0.573247 0.584619 0.596292 0.606959 0.613077 0.606859 0.574207 0.494841 0.348364 0.12841
0.987843 0.88822 0.802139 0.728593 0.666851 0.616076 0.575227 0.54311 0.518457 0.500015 0.486613 0.477205 0.47089 0.466913 0.464664 0.463654 0.463505 0.463928 0.464707 0.465685 0.46675 0.467824 0.468855 0.469812 0.470675 0.471435 0.47209 0.472644 0.473101 0.47347 0.473763 0.473995 0.474201 0.474418 0.474674 0.475007 0.475459 0.476079 0.476926 0.47806 0.47955 0.481464 0.483875 0.48685 0.490452 0.494735 0.499742 0.505499 0.51202 0.519303 0.527336 0.536103 0.545597 0.55582 0.566777 0.578393 0.590249 0.600955 0.606885 0.600231 0.567066 0.487649 0.342475 0.126
0.983014 0.878521 0.788614 0.712428 0.649253 0.598144 0.557875 0.527019 0.504078 0.48759 0.476216 0.468783 0.464304 0.461977 0.461165 0.461376 0.462242 0.463489 0.464925 0.466415 0.467869 0.46923 0.470465 0.471558 0.472504 0.473305 0.473967 0.474499 0.474911 0.475214 0.475419 0.475541 0.475604 0.475636 0.475665 0.475724 0.475853 0.476099 0.47652 0.477179 0.478148 0.479505 0.481331 0.483708 0.486716 0.490428 0.494906 0.500197 0.506332 0.513325 0.521173 0.529863 0.539383 0.54972 0.560853 0.572661 0.584664 0.595382 0.601098 0.593968 0.560236 0.480691 0.336731 0.123639
0.978191 0.868991 0.775434 0.696835 0.6325 0.581361 0.541969 0.512636 0.491607 0.477201 0.467907 0.462435 0.459723 0.458931 0.459413 0.460685 0.462398 0.464304 0.466237 0.468089 0.469797 0.471325 0.472662 0.473805 0.474764 0.47555 0.476178 0.476663 0.477017 0.477253 0.477383 0.477418 0.477373 0.47727 0.47713 0.476982 0.476861 0.476811 0.476886 0.477148 0.47767 0.478533 0.479826 0.481643 0.484076 0.487217 0.491147 0.495934 0.501629 0.508264 0.515849 0.524381 0.533845 0.544221 0.555463 0.567409 0.579515 0.590207 0.595668 0.588016 0.553654 0.47391 0.33109 0.121312
0.973378 0.859631 0.762596 0.681804 0.616576 0.565693 0.527447 0.499858 0.480893 0.468645 0.461434 0.45786 0.456803 0.457401 0.459011 0.46117 0.463555 0.465953 0.468228 0.470305 0.472143 0.473734 0.475082 0.476202 0.477115 0.477843 0.478407 0.478824 0.479112 0.479285 0.479351 0.479322 0.479204 0.479008 0.478754 0.478462 0.478163 0.477895 0.477705 0.477653 0.477809 0.478255 0.479085 0.480399 0.482301 0.484899 0.48829 0.492565 0.497795 0.50403 0.5113 0.519611 0.528955 0.539303 0.550593 0.562623 0.574782 0.585403 0.59056 0.582325 0.547268 0.467257 0.325519 0.119008
0.96858 0.850439 0.750095 0.667324 0.601462 0.551102 0.514243 0.48858 0.471786 0.461722 0.456549 0.454772 0.455229 0.457051 0.459611 0.462478 0.465367 0.4681 0.470577 0.472753 0.474618 0.476181 0.477468 0.478508 0.479332 0.479969 0.480446 0.480785 0.481004 0.481116 0.481133 0.481059 0.480895 0.480646 0.480324 0.479946 0.479533 0.479118 0.47874 0.478453 0.478325 0.478434 0.478876 0.479756 0.481186 0.483286 0.486171 0.489948 0.49471 0.500529 0.507452 0.5155 0.524672 0.534941 0.546224 0.558287 0.570449 0.580946 0.585741 0.576857 0.541033 0.460692 0.31999 0.116716
0.963801 0.841417 0.737927 0.653389 0.587138 0.53755 0.502287 0.478692 0.464131 0.456234 0.453017 0.452907 0.454715 0.457583 0.460915 0.46432 0.467555 0.470482 0.473039 0.475212 0.477016 0.478483 0.479654 0.480572 0.481275 0.481801 0.482179 0.482434 0.482584 0.482644 0.482622 0.48252 0.482335 0.482064 0.481714 0.481295 0.480823 0.480321 0.479822 0.479374 0.479036 0.478886 0.479016 0.479533 0.480557 0.482216 0.484638 0.487949 0.492261 0.497665 0.504228 0.511988 0.520956 0.531102 0.542335 0.554381 0.566496 0.576813 0.58118 0.571576 0.53491 0.45418 0.31448 0.114429
0.959044 0.832562 0.726087 0.639989 0.573585 0.524995 0.491507 0.470083 0.457775 0.451992 0.450617 0.45202 0.455007 0.458744 0.462678 0.466463 0.469903 0.472905 0.475441 0.477528 0.479206 0.480527 0.481545 0.482313 0.482879 0.483282 0.483557 0.483728 0.483815 0.48383 0.483779 0.483664 0.483476 0.483207 0.48286 0.482437 0.481949 0.481409 0.480846 0.480296 0.479816 0.479475 0.479364 0.479589 0.480273 0.481552 0.483565 0.486452 0.490342 0.495348 0.501554 0.509017 0.517759 0.527754 0.538899 0.550886 0.562904 0.572982 0.576852 0.566447 0.528866 0.44769 0.308969 0.112141
0.954314 0.823875 0.714573 0.627115 0.560784 0.513396 0.481827 0.462639 0.452567 0.44881 0.449141 0.451893 0.455884 0.46032 0.464699 0.468726 0.472254 0.475232 0.477669 0.47961 0.481116 0.482257 0.4831 0.483705 0.484126 0.484406 0.48458 0.484673 0.484703 0.484681 0.484612 0.484495 0.484317 0.484068 0.483745 0.483345 0.482872 0.482333 0.481747 0.481147 0.480578 0.480106 0.479816 0.479814 0.480222 0.481182 0.482841 0.485352 0.48886 0.493495 0.49936 0.506529 0.515036 0.524861 0.53589 0.547781 0.559654 0.569432 0.57273 0.561441 0.522867 0.441196 0.303439 0.109846
0.949612 0.815352 0.703379 0.61476 0.548712 0.502707 0.473172 0.456249 0.448361 0.446518 0.448403 0.452334 0.457161 0.46214 0.466824 0.470976 0.474497 0.477377 0.479658 0.48141 0.482717 0.48366 0.484318 0.484758 0.485037 0.485199 0.485279 0.485302 0.485283 0.485234 0.485155 0.485044 0.484886 0.484668 0.484383 0.484024 0.483588 0.483076 0.4825 0.481886 0.481271 0.480717 0.480301 0.480128 0.480319 0.481018 0.482379 0.484565 0.487735 0.492033 0.497582 0.50447 0.512744 0.52239 0.533281 0.545043 0.556724 0.566139 0.568786 0.556527 0.516883 0.434672 0.297878 0.10754
0.944942 0.806993 0.692503 0.602915 0.537349 0.492884 0.465462 0.450799 0.445017 0.444954 0.448233 0.453178 0.458683 0.464065 0.468938 0.47312 0.476561 0.479289 0.481375 0.482916 0.484009 0.484751 0.485226 0.485506 0.485651 0.485705 0.485703 0.485666 0.485609 0.48554 0.485459 0.485359 0.485228 0.485048 0.484809 0.4845 0.484113 0.483644 0.4831 0.482498 0.48187 0.48127 0.480773 0.480476 0.480501 0.480992 0.482109 0.484021 0.486898 0.490899 0.496162 0.50279 0.510841 0.520306 0.531046 0.54265 0.554094 0.56308 0.564994 0.551674 0.510885 0.428096 0.29227 0.10522
0.940305 0.798792 0.681939 0.591573 0.526674 0.483879 0.45862 0.446181 0.442399 0.443972 0.448483 0.454284 0.460325 0.46599 0.470957 0.475098 0.478407 0.480947 0.48282 0.484138 0.485017 0.485561 0.485862 0.485995 0.48602 0.48598 0.485907 0.485823 0.485738 0.485657 0.485579 0.485496 0.485393 0.485253 0.485062 0.484807 0.484475 0.484058 0.483557 0.482983 0.482365 0.481748 0.481201 0.48082 0.480723 0.481054 0.481975 0.483662 0.486294 0.490041 0.495053 0.501447 0.509292 0.518579 0.529159 0.540579 0.551739 0.560231 0.561324 0.546853 0.504843 0.421445 0.286606 0.102882
0.935701 0.790746 0.671685 0.580726 0.516663 0.475645 0.452566 0.442287 0.440384 0.443439 0.449024 0.455534 0.461989 0.467839 0.472826 0.476875 0.480019 0.482354 0.484005 0.485103 0.485775 0.486134 0.486276 0.486277 0.486197 0.486078 0.48595 0.485829 0.485725 0.48564 0.485569 0.485505 0.48543 0.48533 0.485186 0.484983 0.484705 0.484342 0.483888 0.483353 0.482757 0.482142 0.481572 0.481138 0.480956 0.481168 0.481938 0.483447 0.485879 0.489414 0.494213 0.500404 0.508063 0.517182 0.527595 0.538807 0.549639 0.557565 0.557749 0.542031 0.498731 0.4147 0.280874 0.100523
0.931129 0.782847 0.661735 0.570367 0.507294 0.468132 0.447223 0.439017 0.438855 0.443237 0.449744 0.456835 0.463598 0.469557 0.474512 0.478435 0.481397 0.483523 0.484956 0.485845 0.486325 0.486516 0.486516 0.486403 0.486235 0.486052 0.485881 0.485735 0.485621 0.485537 0.485477 0.485432 0.485385 0.48532 0.485219 0.485063 0.484835 0.484522 0.484116 0.483621 0.483055 0.482454 0.48188 0.481417 0.481179 0.481308 0.481968 0.483341 0.485618 0.488984 0.493609 0.499629 0.507126 0.516088 0.526331 0.537312 0.547767 0.555054 0.554236 0.537177 0.492518 0.407841 0.275066 0.0981425
0.926586 0.775088 0.652087 0.56049 0.498545 0.461292 0.442515 0.436272 0.437706 0.44326 0.450552 0.458109 0.465097 0.471107 0.475995 0.479777 0.482555 0.484477 0.485707 0.486403 0.486709 0.486751 0.486629 0.486419 0.48618 0.485947 0.485745 0.485584 0.485466 0.485388 0.485341 0.485315 0.485293 0.485259 0.485194 0.485077 0.484892 0.484622 0.484259 0.483803 0.483269 0.48269 0.482123 0.481651 0.481383 0.48146 0.482045 0.483323 0.485485 0.488724 0.493215 0.499098 0.506458 0.515277 0.525346 0.536072 0.5461 0.552671 0.550752 0.532256 0.486177 0.400848 0.269173 0.0957379
0.922066 0.767459 0.642737 0.551089 0.490393 0.455076 0.438367 0.433962 0.436839 0.443418 0.45137 0.459297 0.466445 0.472467 0.477271 0.480908 0.48351 0.485244 0.486289 0.486813 0.486968 0.486881 0.486655 0.486366 0.486069 0.4858 0.485576 0.485407 0.485291 0.485221 0.485189 0.48518 0.48518 0.485171 0.485134 0.485049 0.484897 0.484663 0.484335 0.483914 0.483411 0.482858 0.482307 0.481839 0.481562 0.481614 0.482157 0.483376 0.485464 0.488616 0.49301 0.49879 0.506039 0.514728 0.52462 0.535064 0.54461 0.550381 0.547261 0.527234 0.479677 0.393704 0.263188 0.0933081
0.917559 0.759947 0.633682 0.542159 0.482816 0.449436 0.434708 0.432002 0.436169 0.443633 0.452133 0.460353 0.467613 0.473625 0.47834 0.481842 0.484284 0.485852 0.486735 0.487111 0.487137 0.486942 0.48663 0.486277 0.485936 0.485638 0.485401 0.485229 0.485117 0.485058 0.485039 0.485045 0.485063 0.485073 0.485056 0.484993 0.484866 0.484658 0.484358 0.483966 0.483491 0.482964 0.482436 0.481985 0.481717 0.481767 0.482298 0.483491 0.485543 0.488647 0.492982 0.498692 0.505854 0.514425 0.524134 0.534265 0.543269 0.548151 0.543725 0.522071 0.472989 0.386389 0.257103 0.090852
0.913049 0.752537 0.624919 0.533698 0.475792 0.444326 0.431471 0.430314 0.435618 0.443838 0.45279 0.461242 0.468582 0.474575 0.479209 0.482592 0.484899 0.486327 0.487076 0.487329 0.487248 0.486965 0.486583 0.486179 0.485803 0.485484 0.485238 0.485064 0.484958 0.484908 0.484901 0.48492 0.484949 0.484971 0.484967 0.484918 0.484806 0.484616 0.484337 0.483967 0.483518 0.483018 0.482518 0.482094 0.481851 0.481922 0.482467 0.483668 0.485718 0.48881 0.493122 0.498793 0.505892 0.514355 0.52387 0.53365 0.542043 0.545941 0.540099 0.516728 0.466081 0.378887 0.250915 0.0883704
0.908514 0.745209 0.616449 0.525702 0.469299 0.439699 0.428592 0.428827 0.435118 0.443976 0.453299 0.461936 0.469338 0.475315 0.479884 0.483174 0.485375 0.486693 0.487336 0.487493 0.487328 0.486975 0.486538 0.486093 0.485688 0.485353 0.485098 0.484924 0.484821 0.484778 0.484777 0.484804 0.48484 0.484868 0.484869 0.484826 0.484722 0.484542 0.484277 0.483926 0.4835 0.483029 0.482562 0.482176 0.481973 0.482086 0.482673 0.483912 0.485995 0.48911 0.493431 0.499091 0.506145 0.514503 0.523805 0.533188 0.54089 0.543695 0.536323 0.511148 0.458915 0.371184 0.24463 0.0858737
0.903915 0.737941 0.608271 0.518171 0.463318 0.435512 0.42601 0.427476 0.434613 0.444 0.453626 0.462415 0.469872 0.475844 0.480372 0.4836 0.485727 0.486969 0.487537 0.487624 0.487397 0.486991 0.486512 0.486034 0.485606 0.485254 0.48499 0.484811 0.484708 0.484665 0.484667 0.484695 0.484731 0.484758 0.484757 0.484713 0.48461 0.484434 0.484179 0.483845 0.483444 0.483006 0.482582 0.482248 0.482105 0.482284 0.48294 0.484249 0.486397 0.489568 0.493928 0.499598 0.506614 0.514855 0.523905 0.532815 0.539715 0.541291 0.532258 0.505202 0.451411 0.363284 0.238337 0.0834501
0.899314 0.730801 0.600401 0.511054 0.457747 0.431641 0.423604 0.426157 0.434022 0.443859 0.453743 0.46267 0.47019 0.476179 0.480696 0.483896 0.485984 0.487182 0.487704 0.487746 0.487477 0.487033 0.48652 0.486014 0.485562 0.485193 0.484915 0.484727 0.484616 0.484568 0.484564 0.484586 0.484616 0.484635 0.484626 0.484576 0.484469 0.484296 0.48405 0.483733 0.483361 0.482965 0.482596 0.48233 0.482269 0.48254 0.483296 0.484705 0.48695 0.490205 0.494626 0.500319 0.507294 0.515389 0.524125 0.532459 0.538418 0.538607 0.527779 0.498792 0.44352 0.355201 0.232099 0.0811497
0.894808 0.723878 0.592843 0.504274 0.452459 0.427944 0.421243 0.424768 0.433275 0.44351 0.453633 0.4627 0.470302 0.476339 0.48088 0.484088 0.486174 0.48736 0.487863 0.487881 0.487585 0.487113 0.486572 0.486039 0.485562 0.48517 0.484873 0.484667 0.484541 0.484479 0.484463 0.484473 0.48449 0.484497 0.484478 0.484418 0.484306 0.484134 0.483898 0.483604 0.483267 0.482923 0.482624 0.482445 0.482487 0.482875 0.483757 0.485296 0.487664 0.491028 0.495527 0.501247 0.508166 0.516075 0.52442 0.532065 0.536936 0.535586 0.522845 0.491899 0.435245 0.346939 0.22589 0.0789281
0.890412 0.717183 0.585586 0.497796 0.447402 0.424362 0.418872 0.423262 0.432336 0.442928 0.453277 0.462495 0.470205 0.476323 0.480927 0.484184 0.486303 0.48751 0.488022 0.488039 0.487732 0.487241 0.486677 0.486117 0.485612 0.485192 0.484867 0.484635 0.484485 0.484402 0.484365 0.484357 0.484357 0.484348 0.484315 0.484246 0.48413 0.483962 0.48374 0.483474 0.483183 0.482903 0.482689 0.482616 0.482783 0.483312 0.484345 0.486039 0.488555 0.492045 0.49663 0.502371 0.509208 0.516874 0.524737 0.531568 0.535201 0.532164 0.517415 0.484508 0.42659 0.338498 0.219689 0.0767544
0.886132 0.710717 0.578618 0.491592 0.442536 0.420851 0.416449 0.421604 0.431177 0.442092 0.452661 0.462043 0.469889 0.476125 0.480832 0.484178 0.486371 0.487634 0.488185 0.488223 0.487922 0.487425 0.486843 0.486257 0.485721 0.485266 0.484906 0.484639 0.484457 0.484342 0.484278 0.484244 0.484223 0.484197 0.484151 0.484073 0.483956 0.483796 0.483596 0.483368 0.483135 0.482934 0.482821 0.482873 0.483186 0.483879 0.485086 0.486956 0.489636 0.493261 0.497932 0.503676 0.510388 0.517738 0.525014 0.530892 0.533136 0.528278 0.511445 0.476603 0.417556 0.329879 0.213476 0.0746067
0.881973 0.704477 0.571925 0.485636 0.437829 0.417375 0.413941 0.419763 0.429773 0.440979 0.451763 0.461325 0.469337 0.475729 0.480583 0.484061 0.486369 0.487726 0.488348 0.488435 0.488161 0.487671 0.487079 0.48647 0.485901 0.485407 0.485004 0.484695 0.48447 0.484316 0.484217 0.484153 0.484107 0.484062 0.484003 0.48392 0.483807 0.483663 0.483495 0.483317 0.483155 0.483049 0.483056 0.483252 0.483732 0.484607 0.486007 0.488067 0.49092 0.494681 0.499423 0.505136 0.511664 0.518609 0.525175 0.529955 0.530659 0.523859 0.504893 0.468169 0.408145 0.321081 0.207237 0.0724692
0.877937 0.698463 0.565497 0.479909 0.43325 0.413903 0.411315 0.417712 0.428096 0.439565 0.450561 0.460321 0.468527 0.475115 0.480159 0.483815 0.486282 0.487774 0.488504 0.48867 0.488447 0.487981 0.487392 0.486766 0.486166 0.485632 0.485182 0.484822 0.484548 0.484348 0.484207 0.484108 0.484035 0.483972 0.483902 0.483818 0.483716 0.483597 0.483472 0.483357 0.483282 0.483288 0.483433 0.483791 0.484454 0.485529 0.487134 0.48939 0.492415 0.4963 0.501084 0.506715 0.512981 0.519413 0.525134 0.528663 0.527682 0.518838 0.497717 0.459192 0.398359 0.312104 0.20096 0.0703303
0.874029 0.692675 0.559325 0.474389 0.428774 0.410405 0.408544 0.415422 0.426123 0.437825 0.44903 0.459001 0.467432 0.474254 0.479533 0.483415 0.486088 0.48776 0.488638 0.488918 0.488776 0.488359 0.487788 0.487157 0.486533 0.485959 0.485461 0.485048 0.484721 0.484469 0.484282 0.484145 0.484044 0.483962 0.483885 0.483806 0.483723 0.483641 0.483571 0.483534 0.483561 0.483695 0.483994 0.48453 0.485391 0.486675 0.488489 0.49094 0.494124 0.498104 0.502883 0.508362 0.514269 0.520063 0.524791 0.526915 0.524114 0.513146 0.489877 0.449657 0.388198 0.302946 0.194633 0.068181
0.870253 0.687114 0.553402 0.469062 0.424379 0.406856 0.405604 0.412871 0.423827 0.435732 0.447138 0.457334 0.466017 0.47311 0.478668 0.482824 0.485753 0.487654 0.488726 0.489163 0.489136 0.488797 0.48827 0.487652 0.487015 0.486411 0.485868 0.485404 0.485022 0.484718 0.484483 0.484306 0.484177 0.48408 0.484001 0.483933 0.483878 0.483843 0.483841 0.483896 0.484041 0.484318 0.484784 0.48551 0.486575 0.48807 0.490088 0.492719 0.496033 0.500063 0.504772 0.510008 0.515439 0.520453 0.524032 0.524599 0.519859 0.506713 0.481333 0.439551 0.377661 0.293607 0.188248 0.0660148
0.866615 0.681781 0.547722 0.463915 0.420046 0.403236 0.402471 0.410034 0.421184 0.433256 0.444853 0.455281 0.464239 0.471638 0.477518 0.481997 0.485234 0.487416 0.488734 0.489374 0.489507 0.489284 0.488832 0.488253 0.487625 0.487005 0.486429 0.485921 0.485489 0.485135 0.484855 0.484641 0.484487 0.484378 0.484301 0.484252 0.484235 0.484258 0.484337 0.484497 0.484771 0.485202 0.485844 0.486764 0.488033 0.48973 0.491935 0.494714 0.498113 0.502128 0.506679 0.511561 0.51638 0.52046 0.52273 0.521596 0.514818 0.49947 0.47205 0.428864 0.366751 0.284085 0.181799 0.0638262
0.863118 0.67668 0.542284 0.458937 0.415761 0.399528 0.399127 0.40689 0.418166 0.430367 0.442136 0.452798 0.462047 0.469783 0.476026 0.480875 0.484474 0.486992 0.488611 0.489509 0.489853 0.489793 0.489458 0.488954 0.488365 0.487753 0.487164 0.486626 0.486156 0.485761 0.485443 0.485198 0.485024 0.484909 0.484841 0.48482 0.48485 0.484941 0.485111 0.485385 0.485797 0.486387 0.487207 0.488315 0.489776 0.491655 0.494012 0.496893 0.50031 0.504224 0.508508 0.512904 0.516959 0.519943 0.520746 0.51778 0.508891 0.491349 0.461991 0.417585 0.355466 0.274379 0.17528 0.0616112
0.859768 0.671816 0.537087 0.454123 0.411514 0.39572 0.395558 0.403421 0.41475 0.427031 0.438947 0.449836 0.459385 0.46748 0.474122 0.479386 0.483399 0.486312 0.488292 0.489509 0.490122 0.490281 0.490114 0.489731 0.489221 0.488654 0.488081 0.487538 0.48705 0.486631 0.486287 0.486022 0.485836 0.485723 0.485673 0.485687 0.485772 0.485939 0.486207 0.486601 0.487152 0.487899 0.488888 0.49017 0.491797 0.49382 0.496278 0.499191 0.50254 0.506244 0.510131 0.513892 0.51702 0.518741 0.517928 0.513022 0.501978 0.482287 0.451127 0.405706 0.343807 0.264487 0.168686 0.0593664
0.856571 0.667196 0.532135 0.449474 0.4073 0.391803 0.391752 0.399611 0.410913 0.423216 0.435242 0.446338 0.456187 0.464655 0.471723 0.477443 0.481919 0.485284 0.487688 0.489288 0.490238 0.490679 0.490742 0.490538 0.49016 0.489683 0.489167 0.488655 0.488178 0.487759 0.48741 0.487141 0.486957 0.486856 0.486833 0.48689 0.487037 0.487284 0.487652 0.488164 0.488848 0.48974 0.490878 0.492303 0.494055 0.496166 0.498654 0.501509 0.504679 0.508044 0.511386 0.514347 0.516379 0.516676 0.514114 0.507186 0.49398 0.472222 0.439429 0.393217 0.331775 0.25441 0.162012 0.057089
0.853533 0.662831 0.527436 0.444991 0.403121 0.387778 0.387705 0.395447 0.406633 0.41889 0.430976 0.442248 0.452381 0.461224 0.468735 0.474942 0.479925 0.483796 0.486686 0.488738 0.490094 0.49089 0.491254 0.491296 0.491113 0.490785 0.490378 0.489943 0.489519 0.489134 0.488808 0.488558 0.488393 0.488317 0.48833 0.488438 0.48865 0.488979 0.489443 0.490062 0.490864 0.491875 0.493128 0.49465 0.496466 0.49859 0.501014 0.503701 0.506562 0.509439 0.512072 0.514063 0.51483 0.513556 0.509134 0.500137 0.484802 0.461098 0.42687 0.380115 0.319369 0.244144 0.155255 0.0547766
0.850663 0.658732 0.523002 0.440686 0.398984 0.383647 0.383416 0.390923 0.401895 0.414024 0.426105 0.437505 0.44789 0.457093 0.465049 0.471763 0.477287 0.48171 0.485145 0.487715 0.48955 0.490778 0.491519 0.491884 0.49197 0.491861 0.491628 0.491328 0.491006 0.490699 0.490434 0.490231 0.490107 0.490072 0.490133 0.490297 0.490576 0.490981 0.491529 0.492238 0.493128 0.494221 0.495537 0.497092 0.498893 0.500933 0.503181 0.505566 0.50797 0.510196 0.51195 0.5128 0.512146 0.509172 0.502815 0.49174 0.474353 0.448863 0.41343 0.366394 0.306591 0.23369 0.148411 0.0524272
0.847967 0.654915 0.518851 0.436575 0.394903 0.379424 0.378894 0.386041 0.396687 0.408593 0.420587 0.432047 0.442634 0.452163 0.460549 0.467769 0.473853 0.478864 0.482892 0.486041 0.488425 0.490161 0.491362 0.492132 0.492568 0.492756 0.49277 0.492673 0.492515 0.492339 0.492178 0.492059 0.492003 0.492028 0.492148 0.492373 0.492715 0.493186 0.493798 0.494566 0.495504 0.496624 0.497936 0.499442 0.50113 0.502971 0.504909 0.506846 0.508631 0.510038 0.510741 0.51029 0.508077 0.503309 0.494979 0.481865 0.462545 0.435471 0.399091 0.352051 0.293441 0.223044 0.141477 0.050039
0.845457 0.6514 0.515005 0.43268 0.390903 0.37513 0.374157 0.38081 0.391008 0.402579 0.414386 0.425819 0.436533 0.446331 0.455106 0.462812 0.469454 0.475069 0.479723 0.483499 0.486495 0.48881 0.490548 0.491806 0.492677 0.493246 0.493588 0.493769 0.493843 0.493859 0.493854 0.493861 0.493904 0.49401 0.4942 0.494489 0.494887 0.495405 0.496052 0.496838 0.497769 0.49885 0.500075 0.501431 0.502891 0.504403 0.505886 0.507217 0.508218 0.508637 0.508131 0.506239 0.502362 0.495744 0.485452 0.470386 0.449303 0.420881 0.383838 0.337084 0.279918 0.212205 0.134448 0.0476103
0.843143 0.648213 0.511497 0.429037 0.387016 0.370799 0.369233 0.375252 0.384869 0.395979 0.407479 0.418772 0.429515 0.439496 0.448592 0.456735 0.463905 0.470114 0.475404 0.479837 0.483488 0.486441 0.488784 0.490607 0.491995 0.493027 0.493779 0.494316 0.494695 0.494968 0.495175 0.495353 0.495529 0.495738 0.49601 0.496363 0.496805 0.497345 0.497991 0.498743 0.499602 0.500561 0.501603 0.502699 0.503803 0.504845 0.505721 0.506288 0.506345 0.505625 0.503773 0.500332 0.494729 0.486254 0.474064 0.457187 0.434554 0.40506 0.367659 0.321492 0.266023 0.20117 0.127322 0.0451395
0.841041 0.645385 0.508366 0.425688 0.383288 0.366476 0.364167 0.369404 0.378296 0.388801 0.399855 0.410874 0.421517 0.431567 0.440883 0.449379 0.457013 0.463774 0.469679 0.474767 0.479091 0.482716 0.485715 0.488163 0.490136 0.491706 0.492944 0.493912 0.494667 0.495262 0.495738 0.496133 0.496477 0.496812 0.497177 0.49759 0.498061 0.498594 0.499192 0.499852 0.500564 0.501311 0.502065 0.502782 0.503399 0.50383 0.503954 0.503608 0.50258 0.500593 0.497295 0.492244 0.484902 0.474622 0.460655 0.442161 0.418238 0.38798 0.350548 0.305273 0.251755 0.189936 0.120094 0.0426249
0.839166 0.642956 0.505665 0.422691 0.379781 0.362223 0.359019 0.363322 0.371336 0.38108 0.391527 0.402114 0.412502 0.422471 0.431869 0.440597 0.448591 0.455819 0.462277 0.467978 0.472956 0.477254 0.480928 0.484035 0.486639 0.488802 0.490585 0.492047 0.49324 0.494214 0.495011 0.495667 0.496212 0.496694 0.497161 0.497629 0.498108 0.4986 0.499103 0.499605 0.500092 0.500535 0.500894 0.501115 0.501121 0.50081 0.50005 0.498669 0.496446 0.493107 0.488311 0.481643 0.472611 0.460639 0.445077 0.425213 0.400304 0.369619 0.332498 0.288429 0.23711 0.178498 0.11276 0.0400648
0.837541 0.640977 0.50346 0.420121 0.376573 0.358123 0.353872 0.357087 0.364061 0.372876 0.382541 0.392512 0.402461 0.412167 0.421473 0.430267 0.43847 0.446034 0.452931 0.459157 0.46472 0.469646 0.473968 0.477727 0.480972 0.48375 0.486112 0.488107 0.489781 0.491177 0.492334 0.493285 0.494058 0.494705 0.495277 0.495793 0.496259 0.496674 0.49703 0.497313 0.497497 0.497548 0.497417 0.497037 0.496323 0.495165 0.493422 0.490919 0.487439 0.482715 0.476429 0.468203 0.457597 0.444112 0.427197 0.406264 0.380711 0.349961 0.313506 0.270956 0.222086 0.166848 0.105314 0.0374571
0.836192 0.639515 0.501837 0.418073 0.373765 0.35428 0.348835 0.350808 0.356578 0.364287 0.37298 0.382136 0.391436 0.400665 0.409664 0.418315 0.426529 0.434242 0.44141 0.44801 0.454032 0.45948 0.464367 0.468719 0.472562 0.475931 0.478862 0.481392 0.483557 0.485391 0.486927 0.488191 0.489208 0.490028 0.490706 0.491258 0.491687 0.491991 0.492155 0.492162 0.491979 0.491565 0.490864 0.489805 0.488295 0.486221 0.483441 0.479783 0.47504 0.468965 0.461267 0.451612 0.43962 0.424869 0.406903 0.385247 0.359427 0.328996 0.293568 0.252853 0.206677 0.15498 0.097749 0.0347996
0.835155 0.638656 0.500909 0.416671 0.371489 0.350833 0.344051 0.344631 0.349036 0.355459 0.362982 0.371107 0.379528 0.388039 0.396484 0.404742 0.412718 0.420339 0.42755 0.434311 0.440596 0.446391 0.451693 0.456505 0.46084 0.464714 0.468147 0.471162 0.473782 0.476031 0.47793 0.4795 0.480755 0.481744 0.482518 0.48309 0.48346 0.483621 0.483557 0.483244 0.482647 0.481719 0.480403 0.478621 0.476283 0.473275 0.469462 0.46468 0.458741 0.45142 0.442465 0.431587 0.418468 0.40276 0.384099 0.362109 0.336427 0.306713 0.272681 0.234113 0.190872 0.142882 0.0900564 0.0320893
0.834478 0.638516 0.500826 0.416076 0.369912 0.347958 0.339705 0.338751 0.341634 0.346596 0.352752 0.359625 0.366926 0.374459 0.382075 0.389655 0.397102 0.40434 0.411306 0.417949 0.424231 0.430124 0.435609 0.440674 0.445315 0.44953 0.453325 0.456707 0.459685 0.46227 0.464471 0.466298 0.467759 0.46889 0.469735 0.470302 0.470587 0.47058 0.470262 0.469604 0.468571 0.467114 0.465174 0.462676 0.459531 0.455633 0.450857 0.445056 0.438062 0.429682 0.419701 0.40788 0.39396 0.377666 0.358712 0.336814 0.311695 0.283107 0.250839 0.214728 0.174659 0.13054 0.0822261 0.0293229
0.834228 0.63926 0.501791 0.416506 0.369257 0.345884 0.336038 0.333423 0.334641 0.337978 0.342578 0.347984 0.353924 0.360214 0.366712 0.373307 0.379905 0.386429 0.392813 0.399002 0.404949 0.410618 0.415978 0.421005 0.425679 0.429987 0.433919 0.437468 0.44063 0.443401 0.44578 0.447765 0.449353 0.450566 0.451432 0.451952 0.45212 0.45192 0.451331 0.450324 0.44886 0.446894 0.444366 0.441208 0.437338 0.432661 0.427064 0.420422 0.412592 0.403414 0.392713 0.380298 0.365966 0.349505 0.3307 0.309341 0.285227 0.258176 0.228037 0.194686 0.158022 0.117938 0.0742463 0.0264965
0.834506 0.641124 0.504091 0.418255 0.36982 0.344915 0.333367 0.32898 0.328411 0.329981 0.332856 0.336599 0.340952 0.345743 0.350842 0.356143 0.361561 0.367021 0.372459 0.377819 0.383052 0.388116 0.392975 0.397597 0.401953 0.406021 0.409778 0.413207 0.416293 0.41902 0.421376 0.423349 0.424927 0.426111 0.426908 0.427312 0.42731 0.426883 0.426009 0.424658 0.422792 0.420367 0.417329 0.413617 0.409159 0.403872 0.397663 0.390427 0.382049 0.372401 0.361347 0.348741 0.334429 0.318257 0.300067 0.279709 0.257041 0.231935 0.204281 0.173983 0.140949 0.105062 0.0661071 0.023607
0.835471 0.64447 0.508147 0.421739 0.372008 0.34546 0.332116 0.325868 0.323417 0.323108 0.324124 0.326041 0.328615 0.331684 0.335128 0.338852 0.342777 0.346833 0.350963 0.355112 0.359234 0.363286 0.367231 0.371034 0.374664 0.378091 0.381289 0.384233 0.386901 0.389271 0.391322 0.393036 0.394394 0.395373 0.395955 0.396124 0.395864 0.395152 0.393964 0.39227 0.390034 0.387217 0.38377 0.379641 0.37477 0.369088 0.362521 0.354986 0.346393 0.336648 0.325646 0.313283 0.299448 0.284031 0.266924 0.248022 0.227229 0.204455 0.179621 0.15265 0.123457 0.0919191 0.057811 0.0206557
0.837403 0.649888 0.514607 0.427576 0.376406 0.348094 0.332869 0.324697 0.320303 0.318042 0.317107 0.317084 0.317738 0.318916 0.320507 0.322423 0.324594 0.326957 0.329459 0.332054 0.334697 0.337351 0.33998 0.34255 0.345032 0.347397 0.349617 0.351668 0.353524 0.355162 0.356559 0.357695 0.358546 0.359071 0.359223 0.35898 0.358319 0.357217 0.355649 0.353586 0.350994 0.347839 0.34408 0.339673 0.334569 0.328715 0.322054 0.314525 0.30606 0.296592 0.286047 0.274353 0.261434 0.247215 0.231626 0.214596 0.196062 0.175961 0.154235 0.130823 0.105644 0.0785767 0.0493987 0.0176579
0.840845 0.658418 0.52453 0.436723 0.383893 0.353663 0.336474 0.326336 0.319972 0.315734 0.312812 0.310798 0.309459 0.308651 0.308268 0.308231 0.308475 0.308943 0.30959 0.310374 0.311257 0.312206 0.31319 0.314181 0.315152 0.316079 0.316937 0.317705 0.318361 0.318885 0.319257 0.319457 0.319468 0.319231 0.318679 0.317785 0.316523 0.314871 0.312803 0.310293 0.307311 0.303828 0.29981 0.295222 0.290027 0.284185 0.277654 0.27039 0.262346 0.253476 0.243731 0.233063 0.221422 0.208762 0.195036 0.1802 0.164211 0.147027 0.128603 0.108888 0.0878086 0.0652495 0.0410031 0.0146615
0.847033 0.672062 0.539774 0.450764 0.395875 0.363493 0.344236 0.332102 0.323776 0.31758 0.312694 0.308704 0.30538 0.30258 0.300202 0.298173 0.296431 0.294926 0.293618 0.292468 0.291447 0.290524 0.289676 0.288877 0.288108 0.287347 0.286577 0.28578 0.284941 0.284043 0.283073 0.282018 0.280865 0.279553 0.278006 0.276196 0.2741 0.271695 0.268961 0.265873 0.262407 0.25854 0.254246 0.249497 0.244267 0.238527 0.232247 0.225398 0.217949 0.20987 0.201128 0.191694 0.181537 0.170628 0.158937 0.146436 0.133096 0.118887 0.103774 0.0877115 0.0706342 0.0524371 0.032936 0.0117789
0.859399 0.695114 0.563855 0.472526 0.414792 0.379842 0.358341 0.344167 0.333899 0.3258 0.319021 0.313135 0.307908 0.303196 0.298901 0.294949 0.291284 0.28786 0.284638 0.281586 0.278676 0.275885 0.273191 0.270575 0.268019 0.265509 0.263029 0.260566 0.258109 0.255646 0.253167 0.250662 0.248125 0.245503 0.242732 0.239787 0.23665 0.233304 0.22973 0.225911 0.221828 0.217465 0.212802 0.20782 0.2025 0.196824 0.190771 0.184322 0.177458 0.170159 0.162405 0.154177 0.145457 0.136225 0.126461 0.116148 0.105262 0.0937801 0.0816724 0.0688985 0.0553995 0.0410823 0.0257879 0.00922228
0.890146 0.737845 0.603994 0.507515 0.445316 0.406987 0.38288 0.366532 0.354306 0.34435 0.335759 0.32808 0.321067 0.314572 0.308494 0.30276 0.297314 0.292112 0.287117 0.282301 0.277638 0.273107 0.268691 0.264372 0.260137 0.255974 0.25187 0.247814 0.243796 0.239807 0.235834 0.231869 0.227899 0.223892 0.219809 0.215634 0.211352 0.206952 0.202423 0.197751 0.192925 0.187933 0.182762 0.177401 0.171836 0.166054 0.160044 0.153792 0.147286 0.140512 0.133458 0.12611 0.118455 0.110478 0.102165 0.0934995 0.0844628 0.0750327 0.0651811 0.0548699 0.0440443 0.0326205 0.0204602 0.00731515
  </DataArray>
  <DataArray type="Float64" Name="velocity" NumberOfComponents="3" format="ascii">
0.0770753 -0.0770753 0.0 0.23104 -0.0768896 0.0 0.384449 -0.0765187 0.0 0.536931 -0.0759635 0.0 0.68812 -0.0752252 0.0 0.83765 -0.0743057 0.0 0.985163 -0.0732072 0.0 1.1303 -0.0719324 0.0 1.27272 -0.0704842 0.0 1.41207 -0.0688663 0.0 1.54802 -0.0670824 0.0 1.68024 -0.065137 0.0 1.80841 -0.0630346 0.0 1.93222 -0.0607804 0.0 2.05138 -0.0583797 0.0 2.1656 -0.0558384 0.0 2.2746 -0.0531626 0.0 2.37813 -0.0503587 0.0 2.47592 -0.0474335 0.0 2.56774 -0.044394 0.0 2.65339 -0.0412475 0.0 2.73264 -0.0380017 0.0 2.8053 -0.0346644 0.0 2.87121 -0.0312435 0.0 2.9302 -0.0277474 0.0 2.98213 -0.0241844 0.0 3.02688 -0.0205632 0.0 3.06434 -0.0168924 0.0 3.09441 -0.0131809 0.0 3.11703 -0.00943768 0.0 3.13214 -0.00567172 0.0 3.1397 -0.00189209 0.0 3.1397 0.00189209 0.0 3.13214 0.00567172 0.0 3.11703 0.00943768 0.0 3.09441 0.0131809 0.0 3.06434 0.0168924 0.0 3.02688 0.0205632 0.0 2.98213 0.0241844 0.0 2.9302 0.0277474 0.0 2.87121 0.0312435 0.0 2.8053 0.0346644 0.0 2.73264 0.0380017 0.0 2.65339 0.0412475 0.0 2.56774 0.044394 0.0 2.47592 0.0474335 0.0 2.37813 0.0503587 0.0 2.2746 0.0531626 0.0 2.1656 0.0558384 0.0 2.05138 0.0583797 0.0 1.93222 0.0607804 0.0 1.80841 0.0630346 0.0 1.68024 0.065137 0.0 1.54802 0.0670824 0.0 1.41207 0.0688663 0.0 1.27272 0.0704842 0.0 1.1303 0.0719324 0.0 0.985163 0.0732072 0.0 0.83765 0.0743057 0.0 0.68812 0.0752252 0.0 0.536931 0.0759635 0.0 0.384449 0.0765187 0.0 0.23104 0.0768896 0.0 0.0770753 0.0770753 0.0
0.0768896 -0.23104 0.0 0.230484 -0.230484 0.0 0.383522 -0.229372 0.0 0.535637 -0.227707 0.0 0.686462 -0.225494 0.0 0.835633 -0.222738 0.0 0.98279 -0.219445 0.0 1.12758 -0.215624 0.0 1.26965 -0.211283 0.0 1.40867 -0.206433 0.0 1.54429 -0.201086 0.0 1.67619 -0.195254 0.0 1.80405 -0.188952 0.0 1.92757 -0.182195 0.0 2.04644 -0.174998 0.0 2.16039 -0.167381 0.0 2.26912 -0.15936 0.0 2.3724 -0.150955 0.0 2.46995 -0.142186 0.0 2.56156 -0.133075 0.0 2.64699 -0.123643 0.0 2.72605 -0.113914 0.0 2.79854 -0.10391 0.0 2.86429 -0.0936553 0.0 2.92314 -0.0831753 0.0 2.97495 -0.072495 0.0 3.01959 -0.06164 0.0 3.05695 -0.0506365 0.0 3.08695 -0.039511 0.0 3.10952 -0.0282903 0.0 3.12459 -0.0170015 0.0 3.13214 -0.00567172 0.0 3.13214 0.00567172 0.0 3.12459 0.0170015 0.0 3.10952 0.0282903 0.0 3.08695 0.039511 0.0 3.05695 0.0506365 0.0 3.01959 0.06164 0.0 2.97495 0.072495 0.0 2.92314 0.0831753 0.0 2.86429 0.0936553 0.0 2.79854 0.10391 0.0 2.72605 0.113914 0.0 2.64699 0.123643 0.0 2.56156 0.133075 0.0 2.46995 0.142186 0.0 2.3724 0.150955 0.0 2.26912 0.15936 0.0 2.16039 0.167381 0.0 2.04644 0.174998 0.0 1.92757 0.182195 0.0 1.80405 0.188952 0.0 1.67619 0.195254 0.0 1.54429 0.201086 0.0 1.40867 0.206433 0.0 1.26965 0.211283 0.0 1.12758 0.215624 0.0 0.98279 0.219445 0.0 0.835633 0.222738 0.0 0.686462 0.225494 0.0 0.535637 0.227707 0.0 0.383522 0.229372 0.0 0.230484 0.230484 0.0 0.0768896 0.23104 0.0
0.0765187 -0.384449 0.0 0.229372 -0.383522 0.0 0.381672 -0.381672 0.0 0.533053 -0.378903 0.0 0.68315 -0.37522 0.0 0.831601 -0.370634 0.0 0.978049 -0.365155 0.0 1.12214 -0.358796 0.0 1.26353 -0.351573 0.0 1.40187 -0.343502 0.0 1.53684 -0.334605 0.0 1.6681 -0.324901 0.0 1.79535 -0.314414 0.0 1.91827 -0.30317 0.0 2.03657 -0.291196 0.0 2.14996 -0.27852 0.0 2.25818 -0.265173 0.0 2.36095 -0.251187 0.0 2.45804 -0.236596 0.0 2.5492 -0.221435 0.0 2.63423 -0.205741 0.0 2.7129 -0.189551 0.0 2.78504 -0.172905 0.0 2.85048 -0.155841 0.0 2.90904 -0.138403 0.0 2.9606 -0.120631 0.0 3.00502 -0.102568 0.0 3.04221 -0.0842586 0.0 3.07206 -0.0657459 0.0 3.09452 -0.0470748 0.0 3.10952 -0.0282903 0.0 3.11703 -0.00943768 0.0 3.11703 0.00943768 0.0 3.10952 0.0282903 0.0 3.09452 0.0470748 0.0 3.07206 0.0657459 0.0 3.04221 0.0842586 0.0 3.00502 0.102568 0.0 2.9606 0.120631 0.0 2.90904 0.138403 0.0 2.85048 0.155841 0.0 2.78504 0.172905 0.0 2.7129 0.189551 0.0 2.63423 0.205741 0.0 2.5492 0.221435 0.0 2.45804 0.236596 0.0 2.36095 0.251187 0.0 2.25818 0.265173 0.0 2.14996 0.27852 0.0 2.03657 0.291196 0.0 1.91827 0.30317 0.0 1.79535 0.314414 0.0 1.6681 0.324901 0.0 1.53684 0.334605 0.0 1.40187 0.343502 0.0 1.26353 0.351573 0.0 1.12214 0.358796 0.0 0.978049 0.365155 0.0 0.831601 0.370634 0.0 0.68315 0.37522 0.0 0.533053 0.378903 0.0 0.381672 0.381672 0.0 0.229372 0.383522 0.0 0.0765187 0.384449 0.0
0.0759635 -0.536931 0.0 0.227707 -0.535637 0.0 0.378903 -0.533053 0.0 0.529185 -0.529185 0.0 0.678193 -0.524042 0.0 0.825567 -0.517637 0.0 0.970952 -0.509985 0.0 1.114 -0.501104 0.0 1.25436 -0.491015 0.0 1.3917 -0.479744 0.0 1.52569 -0.467317 0.0 1.656 -0.453765 0.0 1.78232 -0.439119 0.0 1.90435 -0.423415 0.0 2.02179 -0.406691 0.0 2.13436 -0.388988 0.0 2.24179 -0.370347 0.0 2.34382 -0.350814 0.0 2.4402 -0.330436 0.0 2.5307 -0.309262 0.0 2.61511 -0.287343 0.0 2.69322 -0.264732 0.0 2.76483 -0.241483 0.0 2.82979 -0.217652 0.0 2.88793 -0.193297 0.0 2.93911 -0.168476 0.0 2.98322 -0.143249 0.0 3.02013 -0.117678 0.0 3.04977 -0.0918224 0.0 3.07206 -0.0657459 0.0 3.08695 -0.039511 0.0 3.09441 -0.0131809 0.0 3.09441 0.0131809 0.0 3.08695 0.039511 0.0 3.07206 0.0657459 0.0 3.04977 0.0918224 0.0 3.02013 0.117678 0.0 2.98322 0.143249 0.0 2.93911 0.168476 0.0 2.88793 0.193297 0.0 2.82979 0.217652 0.0 2.76483 0.241483 0.0 2.69322 0.264732 0.0 2.61511 0.287343 0.0 2.5307 0.309262 0.0 2.4402 0.330436 0.0 2.34382 0.350814 0.0 2.24179 0.370347 0.0 2.13436 0.388988 0.0 2.02179 0.406691 0.0 1.90435 0.423415 0.0 1.78232 0.439119 0.0 1.656 0.453765 0.0 1.52569 0.467317 0.0 1.3917 0.479744 0.0 1.25436 0.491015 0.0 1.114 0.501104 0.0 0.970952 0.509985 0.0 0.825567 0.517637 0.0 0.678193 0.524042 0.0 0.529185 0.529185 0.0 0.378903 0.533053 0.0 0.227707 0.535637 0.0 0.0759635 0.536931 0.0
0.0752252 -0.68812 0.0 0.225494 -0.686462 0.0 0.37522 -0.68315 0.0 0.524042 -0.678193 0.0 0.671602 -0.671602 0.0 0.817544 -0.663393 0.0 0.961516 -0.653586 0.0 1.10317 -0.642204 0.0 1.24217 -0.629275 0.0 1.37818 -0.61483 0.0 1.51086 -0.598904 0.0 1.63991 -0.581535 0.0 1.765 -0.562766 0.0 1.88584 -0.54264 0.0 2.00214 -0.521207 0.0 2.11362 -0.498519 0.0 2.22 -0.474629 0.0 2.32104 -0.449596 0.0 2.41649 -0.42348 0.0 2.50611 -0.396344 0.0 2.58969 -0.368253 0.0 2.66704 -0.339275 0.0 2.73796 -0.30948 0.0 2.80229 -0.278938 0.0 2.85986 -0.247725 0.0 2.91055 -0.215916 0.0 2.95422 -0.183586 0.0 2.99078 -0.150813 0.0 3.02013 -0.117678 0.0 3.04221 -0.0842586 0.0 3.05695 -0.0506365 0.0 3.06434 -0.0168924 0.0 3.06434 0.0168924 0.0 3.05695 0.0506365 0.0 3.04221 0.0842586 0.0 3.02013 0.117678 0.0 2.99078 0.150813 0.0 2.95422 0.183586 0.0 2.91055 0.215916 0.0 2.85986 0.247725 0.0 2.80229 0.278938 0.0 2.73796 0.30948 0.0 2.66704 0.339275 0.0 2.58969 0.368253 0.0 2.50611 0.396344 0.0 2.41649 0.42348 0.0 2.32104 0.449596 0.0 2.22 0.474629 0.0 2.11362 0.498519 0.0 2.00214 0.521207 0.0 1.88584 0.54264 0.0 1.765 0.562766 0.0 1.63991 0.581535 0.0 1.51086 0.598904 0.0 1.37818 0.61483 0.0 1.24217 0.629275 0.0 1.10317 0.642204 0.0 0.961516 0.653586 0.0 0.817544 0.663393 0.0 0.671602 0.671602 0.0 0.524042 0.678193 0.0 0.37522 0.68315 0.0 0.225494 0.686462 0.0 0.0752252 0.68812 0.0
0.0743057 -0.83765 0.0 0.222738 -0.835633 0.0 0.370634 -0.831601 0.0 0.517637 -0.825567 0.0 0.663393 -0.817544 0.0 0.807551 -0.807551 0.0 0.949763 -0.795612 0.0 1.08969 -0.781757 0.0 1.22699 -0.766019 0.0 1.36133 -0.748435 0.0 1.49239 -0.729048 0.0 1.61986 -0.707905 0.0 1.74343 -0.685057 0.0 1.86279 -0.660558 0.0 1.97767 -0.634467 0.0 2.08779 -0.606849 0.0 2.19287 -0.577768 0.0 2.29267 -0.547295 0.0 2.38695 -0.515504 0.0 2.47548 -0.482471 0.0 2.55804 -0.448276 0.0 2.63444 -0.413001 0.0 2.7045 -0.376731 0.0 2.76804 -0.339553 0.0 2.82491 -0.301557 0.0 2.87497 -0.262835 0.0 2.91811 -0.223479 0.0 2.95422 -0.183586 0.0 2.98322 -0.143249 0.0 3.00502 -0.102568 0.0 3.01959 -0.06164 0.0 3.02688 -0.0205632 0.0 3.02688 0.0205632 0.0 3.01959 0.06164 0.0 3.00502 0.102568 0.0 2.98322 0.143249 0.0 2.95422 0.183586 0.0 2.91811 0.223479 0.0 2.87497 0.262835 0.0 2.82491 0.301557 0.0 2.76804 0.339553 0.0 2.7045 0.376731 0.0 2.63444 0.413001 0.0 2.55804 0.448276 0.0 2.47548 0.482471 0.0 2.38695 0.515504 0.0 2.29267 0.547295 0.0 2.19287 0.577768 0.0 2.08779 0.606849 0.0 1.97767 0.634467 0.0 1.86279 0.660558 0.0 1.74343 0.685057 0.0 1.61986 0.707905 0.0 1.49239 0.729048 0.0 1.36133 0.748435 0.0 1.22699 0.766019 0.0 1.08969 0.781757 0.0 0.949763 0.795612 0.0 0.807551 0.807551 0.0 0.663393 0.817544 0.0 0.517637 0.825567 0.0 0.370634 0.831601 0.0 0.222738 0.835633 0.0 0.0743057 0.83765 0.0
0.0732072 -0.985163 0.0 0.219445 -0.98279 0.0 0.365155 -0.978049 0.0 0.509985 -0.970952 0.0 0.653586 -0.961516 0.0 0.795612 -0.949763 0.0 0.935722 -0.935722 0.0 1.07358 -0.919427 0.0 1.20885 -0.900917 0.0 1.3412 -0.880237 0.0 1.47033 -0.857436 0.0 1.59591 -0.83257 0.0 1.71765 -0.805697 0.0 1.83525 -0.776884 0.0 1.94843 -0.746199 0.0 2.05692 -0.713717 0.0 2.16045 -0.679515 0.0 2.25878 -0.643676 0.0 2.35166 -0.606286 0.0 2.43888 -0.567436 0.0 2.52022 -0.527219 0.0 2.5955 -0.485732 0.0 2.66452 -0.443074 0.0 2.72712 -0.399349 0.0 2.78315 -0.354662 0.0 2.83247 -0.309121 0.0 2.87497 -0.262835 0.0 2.91055 -0.215916 0.0 2.93911 -0.168476 0.0 2.9606 -0.120631 0.0 2.97495 -0.072495 0.0 2.98213 -0.0241844 0.0 2.98213 0.0241844 0.0 2.97495 0.072495 0.0 2.9606 0.120631 0.0 2.93911 0.168476 0.0 2.91055 0.215916 0.0 2.87497 0.262835 0.0 2.83247 0.309121 0.0 2.78315 0.354662 0.0 2.72712 0.399349 0.0 2.66452 0.443074 0.0 2.5955 0.485732 0.0 2.52022 0.527219 0.0 2.43888 0.567436 0.0 2.35166 0.606286 0.0 2.25878 0.643676 0.0 2.16045 0.679515 0.0 2.05692 0.713717 0.0 1.94843 0.746199 0.0 1.83525 0.776884 0.0 1.71765 0.805697 0.0 1.59591 0.83257 0.0 1.47033 0.857436 0.0 1.3412 0.880237 0.0 1.20885 0.900917 0.0 1.07358 0.919427 0.0 0.935722 0.935722 0.0 0.795612 0.949763 0.0 0.653586 0.961516 0.0 0.509985 0.970952 0.0 0.365155 0.978049 0.0 0.219445 0.98279 0.0 0.0732072 0.985163 0.0
0.0719324 -1.1303 0.0 0.215624 -1.12758 0.0 0.358796 -1.12214 0.0 0.501104 -1.114 0.0 0.642204 -1.10317 0.0 0.781757 -1.08969 0.0 0.919427 -1.07358 0.0 1.05488 -1.05488 0.0 1.1878 -1.03365 0.0 1.31785 -1.00992 0.0 1.44473 -0.983758 0.0 1.56812 -0.955228 0.0 1.68774 -0.924397 0.0 1.8033 -0.891339 0.0 1.9145 -0.856133 0.0 2.0211 -0.818865 0.0 2.12283 -0.779625 0.0 2.21944 -0.738506 0.0 2.31071 -0.695608 0.0 2.39641 -0.651034 0.0 2.47634 -0.604892 0.0 2.5503 -0.557292 0.0 2.61811 -0.50835 0.0 2.67962 -0.458183 0.0 2.73468 -0.406913 0.0 2.78315 -0.354662 0.0 2.82491 -0.301557 0.0 2.85986 -0.247725 0.0 2.88793 -0.193297 0.0 2.90904 -0.138403 0.0 2.92314 -0.0831753 0.0 2.9302 -0.0277474 0.0 2.9302 0.0277474 0.0 2.92314 0.0831753 0.0 2.90904 0.138403 0.0 2.88793 0.193297 0.0 2.85986 0.247725 0.0 2.82491 0.301557 0.0 2.78315 0.354662 0.0 2.73468 0.406913 0.0 2.67962 0.458183 0.0 2.61811 0.50835 0.0 2.5503 0.557292 0.0 2.47634 0.604892 0.0 2.39641 0.651034 0.0 2.31071 0.695608 0.0 2.21944 0.738506 0.0 2.12283 0.779625 0.0 2.0211 0.818865 0.0 1.9145 0.856133 0.0 1.8033 0.891339 0.0 1.68774 0.924397 0.0 1.56812 0.955228 0.0 1.44473 0.983758 0.0 1.31785 1.00992 0.0 1.1878 1.03365 0.0 1.05488 1.05488 0.0 0.919427 1.07358 0.0 0.781757 1.08969 0.0 0.642204 1.10317 0.0 0.501104 1.114 0.0 0.358796 1.12214 0.0 0.215624 1.12758 0.0 0.0719324 1.1303 0.0
0.0704842 -1.27272 0.0 0.211283 -1.26965 0.0 0.351573 -1.26353 0.0 0.491015 -1.25436 0.0 0.629275 -1.24217 0.0 0.766019 -1.22699 0.0 0.900917 -1.20885 0.0 1.03365 -1.1878 0.0 1.16388 -1.16388 0.0 1.29132 -1.13717 0.0 1.41564 -1.10771 0.0 1.53655 -1.07559 0.0 1.65376 -1.04087 0.0 1.76699 -1.00365 0.0 1.87596 -0.964005 0.0 1.98041 -0.922041 0.0 2.08009 -0.877856 0.0 2.17476 -0.831556 0.0 2.26419 -0.783253 0.0 2.34816 -0.733063 0.0 2.42648 -0.681107 0.0 2.49895 -0.62751 0.0 2.56541 -0.572402 0.0 2.62568 -0.515914 0.0 2.67962 -0.458183 0.0 2.72712 -0.399349 0.0 2.76804 -0.339553 0.0 2.80229 -0.278938 0.0 2.82979 -0.217652 0.0 2.85048 -0.155841 0.0 2.86429 -0.0936553 0.0 2.87121 -0.0312435 0.0 2.87121 0.0312435 0.0 2.86429 0.0936553 0.0 2.85048 0.155841 0.0 2.82979 0.217652 0.0 2.80229 0.278938 0.0 2.76804 0.339553 0.0 2.72712 0.399349 0.0 2.67962 0.458183 0.0 2.62568 0.515914 0.0 2.56541 0.572402 0.0 2.49895 0.62751 0.0 2.42648 0.681107 0.0 2.34816 0.733063 0.0 2.26419 0.783253 0.0 2.17476 0.831556 0.0 2.08009 0.877856 0.0 1.98041 0.922041 0.0 1.87596 0.964005 0.0 1.76699 1.00365 0.0 1.65376 1.04087 0.0 1.53655 1.07559 0.0 1.41564 1.10771 0.0 1.29132 1.13717 0.0 1.16388 1.16388 0.0 1.03365 1.1878 0.0 0.900917 1.20885 0.0 0.766019 1.22699 0.0 0.629275 1.24217 0.0 0.491015 1.25436 0.0 0.351573 1.26353 0.0 0.211283 1.26965 0.0 0.0704842 1.27272 0.0
0.0688663 -1.41207 0.0 0.206433 -1.40867 0.0 0.343502 -1.40187 0.0 0.479744 -1.3917 0.0 0.61483 -1.37818 0.0 0.748435 -1.36133 0.0 0.880237 -1.3412 0.0 1.00992 -1.31785 0.0 1.13717 -1.29132 0.0 1.26168 -1.26168 0.0 1.38314 -1.22899 0.0 1.50128 -1.19335 0.0 1.6158 -1.15483 0.0 1.72643 -1.11354 0.0 1.8329 -1.06955 0.0 1.93495 -1.023 0.0 2.03234 -0.973973 0.0 2.12484 -0.922604 0.0 2.21222 -0.869012 0.0 2.29426 -0.813327 0.0 2.37078 -0.755682 0.0 2.44159 -0.696217 0.0 2.50652 -0.635074 0.0 2.56541 -0.572402 0.0 2.61811 -0.50835 0.0 2.66452 -0.443074 0.0 2.7045 -0.376731 0.0 2.73796 -0.30948 0.0 2.76483 -0.241483 0.0 2.78504 -0.172905 0.0 2.79854 -0.10391 0.0 2.8053 -0.0346644 0.0 2.8053 0.0346644 0.0 2.79854 0.10391 0.0 2.78504 0.172905 0.0 2.76483 0.241483 0.0 2.73796 0.30948 0.0 2.7045 0.376731 0.0 2.66452 0.443074 0.0 2.61811 0.50835 0.0 2.56541 0.572402 0.0 2.50652 0.635074 0.0 2.44159 0.696217 0.0 2.37078 0.755682 0.0 2.29426 0.813327 0.0 2.21222 0.869012 0.0 2.12484 0.922604 0.0 2.03234 0.973973 0.0 1.93495 1.023 0.0 1.8329 1.06955 0.0 1.72643 1.11354 0.0 1.6158 1.15483 0.0 1.50128 1.19335 0.0 1.38314 1.22899 0.0 1.26168 1.26168 0.0 1.13717 1.29132 0.0 1.00992 1.31785 0.0 0.880237 1.3412 0.0 0.748435 1.36133 0.0 0.61483 1.37818 0.0 0.479744 1.3917 0.0 0.343502 1.40187 0.0 0.206433 1.40867 0.0 0.0688663 1.41207 0.0
0.0670824 -1.54802 0.0 0.201086 -1.54429 0.0 0.334605 -1.53684 0.0 0.467317 -1.52569 0.0 0.598904 -1.51086 0.0 0.729048 -1.49239 0.0 0.857436 -1.47033 0.0 0.983758 -1.44473 0.0 1.10771 -1.41564 0.0 1.22899 -1.38314 0.0 1.34732 -1.34732 0.0 1.46239 -1.30824 0.0 1.57395 -1.26602 0.0 1.68171 -1.22074 0.0 1.78542 -1.17253 0.0 1.88483 -1.12149 0.0 1.9797 -1.06774 0.0 2.0698 -1.01143 0.0 2.15491 -0.952677 0.0 2.23483 -0.891631 0.0 2.30937 -0.828436 0.0 2.37835 -0.763246 0.0 2.44159 -0.696217 0.0 2.49895 -0.62751 0.0 2.5503 -0.557292 0.0 2.5955 -0.485732 0.0 2.63444 -0.413001 0.0 2.66704 -0.339275 0.0 2.69322 -0.264732 0.0 2.7129 -0.189551 0.0 2.72605 -0.113914 0.0 2.73264 -0.0380017 0.0 2.73264 0.0380017 0.0 2.72605 0.113914 0.0 2.7129 0.189551 0.0 2.69322 0.264732 0.0 2.66704 0.339275 0.0 2.63444 0.413001 0.0 2.5955 0.485732 0.0 2.5503 0.557292 0.0 2.49895 0.62751 0.0 2.44159 0.696217 0.0 2.37835 0.763246 0.0 2.30937 0.828436 0.0 2.23483 0.891631 0.0 2.15491 0.952677 0.0 2.0698 1.01143 0.0 1.9797 1.06774 0.0 1.88483 1.12149 0.0 1.78542 1.17253 0.0 1.68171 1.22074 0.0 1.57395 1.26602 0.0 1.46239 1.30824 0.0 1.34732 1.34732 0.0 1.22899 1.38314 0.0 1.10771 1.41564 0.0 0.983758 1.44473 0.0 0.857436 1.47033 0.0 0.729048 1.49239 0.0 0.598904 1.51086 0.0 0.467317 1.52569 0.0 0.334605 1.53684 0.0 0.201086 1.54429 0.0 0.0670824 1.54802 0.0
0.065137 -1.68024 0.0 0.195254 -1.67619 0.0 0.324901 -1.6681 0.0 0.453765 -1.656 0.0 0.581535 -1.63991 0.0 0.707905 -1.61986 0.0 0.83257 -1.59591 0.0 0.955228 -1.56812 0.0 1.07559 -1.53655 0.0 1.19335 -1.50128 0.0 1.30824 -1.46239 0.0 1.41998 -1.41998 0.0 1.5283 -1.37415 0.0 1.63294 -1.32501 0.0 1.73364 -1.27267 0.0 1.83017 -1.21727 0.0 1.92229 -1.15894 0.0 2.00977 -1.09782 0.0 2.09242 -1.03405 0.0 2.17002 -0.967787 0.0 2.2424 -0.899194 0.0 2.30937 -0.828436 0.0 2.37078 -0.755682 0.0 2.42648 -0.681107 0.0 2.47634 -0.604892 0.0 2.52022 -0.527219 0.0 2.55804 -0.448276 0.0 2.58969 -0.368253 0.0 2.61511 -0.287343 0.0 2.63423 -0.205741 0.0 2.64699 -0.123643 0.0 2.65339 -0.0412475 0.0 2.65339 0.0412475 0.0 2.64699 0.123643 0.0 2.63423 0.205741 0.0 2.61511 0.287343 0.0 2.58969 0.368253 0.0 2.55804 0.448276 0.0 2.52022 0.527219 0.0 2.47634 0.604892 0.0 2.42648 0.681107 0.0 2.37078 0.755682 0.0 2.30937 0.828436 0.0 2.2424 0.899194 0.0 2.17002 0.967787 0.0 2.09242 1.03405 0.0 2.00977 1.09782 0.0 1.92229 1.15894 0.0 1.83017 1.21727 0.0 1.73364 1.27267 0.0 1.63294 1.32501 0.0 1.5283 1.37415 0.0 1.41998 1.41998 0.0 1.30824 1.46239 0.0 1.19335 1.50128 0.0 1.07559 1.53655 0.0 0.955228 1.56812 0.0 0.83257 1.59591 0.0 0.707905 1.61986 0.0 0.581535 1.63991 0.0 0.453765 1.656 0.0 0.324901 1.6681 0.0 0.195254 1.67619 0.0 0.065137 1.68024 0.0
0.0630346 -1.80841 0.0 0.188952 -1.80405 0.0 0.314414 -1.79535 0.0 0.439119 -1.78232 0.0 0.562766 -1.765 0.0 0.685057 -1.74343 0.0 0.805697 -1.71765 0.0 0.924397 -1.68774 0.0 1.04087 -1.65376 0.0 1.15483 -1.6158 0.0 1.26602 -1.57395 0.0 1.37415 -1.5283 0.0 1.47897 -1.47897 0.0 1.58023 -1.42608 0.0 1.67769 -1.36976 0.0 1.7711 -1.31013 0.0 1.86024 -1.24735 0.0 1.9449 -1.18156 0.0 2.02488 -1.11293 0.0 2.09998 -1.04161 0.0 2.17002 -0.967787 0.0 2.23483 -0.891631 0.0 2.29426 -0.813327 0.0 2.34816 -0.733063 0.0 2.39641 -0.651034 0.0 2.43888 -0.567436 0.0 2.47548 -0.482471 0.0 2.50611 -0.396344 0.0 2.5307 -0.309262 0.0 2.5492 -0.221435 0.0 2.56156 -0.133075 0.0 2.56774 -0.044394 0.0 2.56774 0.044394 0.0 2.56156 0.133075 0.0 2.5492 0.221435 0.0 2.5307 0.309262 0.0 2.50611 0.396344 0.0 2.47548 0.482471 0.0 2.43888 0.567436 0.0 2.39641 0.651034 0.0 2.34816 0.733063 0.0 2.29426 0.813327 0.0 2.23483 0.891631 0.0 2.17002 0.967787 0.0 2.09998 1.04161 0.0 2.02488 1.11293 0.0 1.9449 1.18156 0.0 1.86024 1.24735 0.0 1.7711 1.31013 0.0 1.67769 1.36976 0.0 1.58023 1.42608 0.0 1.47897 1.47897 0.0 1.37415 1.5283 0.0 1.26602 1.57395 0.0 1.15483 1.6158 0.0 1.04087 1.65376 0.0 0.924397 1.68774 0.0 0.805697 1.71765 0.0 0.685057 1.74343 0.0 0.562766 1.765 0.0 0.439119 1.78232 0.0 0.314414 1.79535 0.0 0.188952 1.80405 0.0 0.0630346 1.80841 0.0
0.0607804 -1.93222 0.0 0.182195 -1.92757 0.0 0.30317 -1.91827 0.0 0.423415 -1.90435 0.0 0.54264 -1.88584 0.0 0.660558 -1.86279 0.0 0.776884 -1.83525 0.0 0.891339 -1.8033 0.0 1.00365 -1.76699 0.0 1.11354 -1.72643 0.0 1.22074 -1.68171 0.0 1.32501 -1.63294 0.0 1.42608 -1.58023 0.0 1.52372 -1.52372 0.0 1.61769 -1.46354 0.0 1.70776 -1.39983 0.0 1.79372 -1.33275 0.0 1.87535 -1.26246 0.0 1.95247 -1.18912 0.0 2.02488 -1.11293 0.0 2.09242 -1.03405 0.0 2.15491 -0.952677 0.0 2.21222 -0.869012 0.0 2.26419 -0.783253 0.0 2.31071 -0.695608 0.0 2.35166 -0.606286 0.0 2.38695 -0.515504 0.0 2.41649 -0.42348 0.0 2.4402 -0.330436 0.0 2.45804 -0.236596 0.0 2.46995 -0.142186 0.0 2.47592 -0.0474335 0.0 2.47592 0.0474335 0.0 2.46995 0.142186 0.0 2.45804 0.236596 0.0 2.4402 0.330436 0.0 2.41649 0.42348 0.0 2.38695 0.515504 0.0 2.35166 0.606286 0.0 2.31071 0.695608 0.0 2.26419 0.783253 0.0 2.21222 0.869012 0.0 2.15491 0.952677 0.0 2.09242 1.03405 0.0 2.02488 1.11293 0.0 1.95247 1.18912 0.0 1.87535 1.26246 0.0 1.79372 1.33275 0.0 1.70776 1.39983 0.0 1.61769 1.46354 0.0 1.52372 1.52372 0.0 1.42608 1.58023 0.0 1.32501 1.63294 0.0 1.22074 1.68171 0.0 1.11354 1.72643 0.0 1.00365 1.76699 0.0 0.891339 1.8033 0.0 0.776884 1.83525 0.0 0.660558 1.86279 0.0 0.54264 1.88584 0.0 0.423415 1.90435 0.0 0.30317 1.91827 0.0 0.182195 1.92757 0.0 0.0607804 1.93222 0.0
0.0583797 -2.05138 0.0 0.174998 -2.04644 0.0 0.291196 -2.03657 0.0 0.406691 -2.02179 0.0 0.521207 -2.00214 0.0 0.634467 -1.97767 0.0 0.746199 -1.94843 0.0 0.856133 -1.9145 0.0 0.964005 -1.87596 0.0 1.06955 -1.8329 0.0 1.17253 -1.78542 0.0 1.27267 -1.73364 0.0 1.36976 -1.67769 0.0 1.46354 -1.61769 0.0 1.55379 -1.55379 0.0 1.64031 -1.48616 0.0 1.72287 -1.41494 0.0 1.80128 -1.34031 0.0 1.87535 -1.26246 0.0 1.9449 -1.18156 0.0 2.00977 -1.09782 0.0 2.0698 -1.01143 0.0 2.12484 -0.922604 0.0 2.17476 -0.831556 0.0 2.21944 -0.738506 0.0 2.25878 -0.643676 0.0 2.29267 -0.547295 0.0 2.32104 -0.449596 0.0 2.34382 -0.350814 0.0 2.36095 -0.251187 0.0 2.3724 -0.150955 0.0 2.37813 -0.0503587 0.0 2.37813 0.0503587 0.0 2.3724 0.150955 0.0 2.36095 0.251187 0.0 2.34382 0.350814 0.0 2.32104 0.449596 0.0 2.29267 0.547295 0.0 2.25878 0.643676 0.0 2.21944 0.738506 0.0 2.17476 0.831556 0.0 2.12484 0.922604 0.0 2.0698 1.01143 0.0 2.00977 1.09782 0.0 1.9449 1.18156 0.0 1.87535 1.26246 0.0 1.80128 1.34031 0.0 1.72287 1.41494 0.0 1.64031 1.48616 0.0 1.55379 1.55379 0.0 1.46354 1.61769 0.0 1.36976 1.67769 0.0 1.27267 1.73364 0.0 1.17253 1.78542 0.0 1.06955 1.8329 0.0 0.964005 1.87596 0.0 0.856133 1.9145 0.0 0.746199 1.94843 0.0 0.634467 1.97767 0.0 0.521207 2.00214 0.0 0.406691 2.02179 0.0 0.291196 2.03657 0.0 0.174998 2.04644 0.0 0.0583797 2.05138 0.0
0.0558384 -2.1656 0.0 0.167381 -2.16039 0.0 0.27852 -2.14996 0.0 0.388988 -2.13436 0.0 0.498519 -2.11362 0.0 0.606849 -2.08779 0.0 0.713717 -2.05692 0.0 0.818865 -2.0211 0.0 0.922041 -1.98041 0.0 1.023 -1.93495 0.0 1.12149 -1.88483 0.0 1.21727 -1.83017 0.0 1.31013 -1.7711 0.0 1.39983 -1.70776 0.0 1.48616 -1.64031 0.0 1.5689 -1.5689 0.0 1.64787 -1.49372 0.0 1.72287 -1.41494 0.0 1.79372 -1.33275 0.0 1.86024 -1.24735 0.0 1.92229 -1.15894 0.0 1.9797 -1.06774 0.0 2.03234 -0.973973 0.0 2.08009 -0.877856 0.0 2.12283 -0.779625 0.0 2.16045 -0.679515 0.0 2.19287 -0.577768 0.0 2.22 -0.474629 0.0 2.24179 -0.370347 0.0 2.25818 -0.265173 0.0 2.26912 -0.15936 0.0 2.2746 -0.0531626 0.0 2.2746 0.0531626 0.0 2.26912 0.15936 0.0 2.25818 0.265173 0.0 2.24179 0.370347 0.0 2.22 0.474629 0.0 2.19287 0.577768 0.0 2.16045 0.679515 0.0 2.12283 0.779625 0.0 2.08009 0.877856 0.0 2.03234 0.973973 0.0 1.9797 1.06774 0.0 1.92229 1.15894 0.0 1.86024 1.24735 0.0 1.79372 1.33275 0.0 1.72287 1.41494 0.0 1.64787 1.49372 0.0 1.5689 1.5689 0.0 1.48616 1.64031 0.0 1.39983 1.70776 0.0 1.31013 1.7711 0.0 1.21727 1.83017 0.0 1.12149 1.88483 0.0 1.023 1.93495 0.0 0.922041 1.98041 0.0 0.818865 2.0211 0.0 0.713717 2.05692 0.0 0.606849 2.08779 0.0 0.498519 2.11362 0.0 0.388988 2.13436 0.0 0.27852 2.14996 0.0 0.167381 2.16039 0.0 0.0558384 2.1656 0.0
0.0531626 -2.2746 0.0 0.15936 -2.26912 0.0 0.265173 -2.25818 0.0 0.370347 -2.24179 0.0 0.474629 -2.22 0.0 0.577768 -2.19287 0.0 0.679515 -2.16045 0.0 0.779625 -2.12283 0.0 0.877856 -2.08009 0.0 0.973973 -2.03234 0.0 1.06774 -1.9797 0.0 1.15894 -1.92229 0.0 1.24735 -1.86024 0.0 1.33275 -1.79372 0.0 1.41494 -1.72287 0.0 1.49372 -1.64787 0.0 1.5689 -1.5689 0.0 1.64031 -1.48616 0.0 1.70776 -1.39983 0.0 1.7711 -1.31013 0.0 1.83017 -1.21727 0.0 1.88483 -1.12149 0.0 1.93495 -1.023 0.0 1.98041 -0.922041 0.0 2.0211 -0.818865 0.0 2.05692 -0.713717 0.0 2.08779 -0.606849 0.0 2.11362 -0.498519 0.0 2.13436 -0.388988 0.0 2.14996 -0.27852 0.0 2.16039 -0.167381 0.0 2.1656 -0.0558384 0.0 2.1656 0.0558384 0.0 2.16039 0.167381 0.0 2.14996 0.27852 0.0 2.13436 0.388988 0.0 2.11362 0.498519 0.0 2.08779 0.606849 0.0 2.05692 0.713717 0.0 2.0211 0.818865 0.0 1.98041 0.922041 0.0 1.93495 1.023 0.0 1.88483 1.12149 0.0 1.83017 1.21727 0.0 1.7711 1.31013 0.0 1.70776 1.39983 0.0 1.64031 1.48616 0.0 1.5689 1.5689 0.0 1.49372 1.64787 0.0 1.41494 1.72287 0.0 1.33275 1.79372 0.0 1.24735 1.86024 0.0 1.15894 1.92229 0.0 1.06774 1.9797 0.0 0.973973 2.03234 0.0 0.877856 2.08009 0.0 0.779625 2.12283 0.0 0.679515 2.16045 0.0 0.577768 2.19287 0.0 0.474629 2.22 0.0 0.370347 2.24179 0.0 0.265173 2.25818 0.0 0.15936 2.26912 0.0 0.0531626 2.2746 0.0
0.0503587 -2.37813 0.0 0.150955 -2.3724 0.0 0.251187 -2.36095 0.0 0.350814 -2.34382 0.0 0.449596 -2.32104 0.0 0.547295 -2.29267 0.0 0.643676 -2.25878 0.0 0.738506 -2.21944 0.0 0.831556 -2.17476 0.0 0.922604 -2.12484 0.0 1.01143 -2.0698 0.0 1.09782 -2.00977 0.0 1.18156 -1.9449 0.0 1.26246 -1.87535 0.0 1.34031 -1.80128 0.0 1.41494 -1.72287 0.0 1.48616 -1.64031 0.0 1.55379 -1.55379 0.0 1.61769 -1.46354 0.0 1.67769 -1.36976 0.0 1.73364 -1.27267 0.0 1.78542 -1.17253 0.0 1.8329 -1.06955 0.0 1.87596 -0.964005 0.0 1.9145 -0.856133 0.0 1.94843 -0.746199 0.0 1.97767 -0.634467 0.0 2.00214 -0.521207 0.0 2.02179 -0.406691 0.0 2.03657 -0.291196 0.0 2.04644 -0.174998 0.0 2.05138 -0.0583797 0.0 2.05138 0.0583797 0.0 2.04644 0.174998 0.0 2.03657 0.291196 0.0 2.02179 0.406691 0.0 2.00214 0.521207 0.0 1.97767 0.634467 0.0 1.94843 0.746199 0.0 1.9145 0.856133 0.0 1.87596 0.964005 0.0 1.8329 1.06955 0.0 1.78542 1.17253 0.0 1.73364 1.27267 0.0 1.67769 1.36976 0.0 1.61769 1.46354 0.0 1.55379 1.55379 0.0 1.48616 1.64031 0.0 1.41494 1.72287 0.0 1.34031 1.80128 0.0 1.26246 1.87535 0.0 1.18156 1.9449 0.0 1.09782 2.00977 0.0 1.01143 2.0698 0.0 0.922604 2.12484 0.0 0.831556 2.17476 0.0 0.738506 2.21944 0.0 0.643676 2.25878 0.0 0.547295 2.29267 0.0 0.449596 2.32104 0.0 0.350814 2.34382 0.0 0.251187 2.36095 0.0 0.150955 2.3724 0.0 0.0503587 2.37813 0.0
0.0474335 -2.47592 0.0 0.142186 -2.46995 0.0 0.236596 -2.45804 0.0 0.330436 -2.4402 0.0 0.42348 -2.41649 0.0 0.515504 -2.38695 0.0 0.606286 -2.35166 0.0 0.695608 -2.31071 0.0 0.783253 -2.26419 0.0 0.869012 -2.21222 0.0 0.952677 -2.15491 0.0 1.03405 -2.09242 0.0 1.11293 -2.02488 0.0 1.18912 -1.95247 0.0 1.26246 -1.87535 0.0 1.33275 -1.79372 0.0 1.39983 -1.70776 0.0 1.46354 -1.61769 0.0 1.52372 -1.52372 0.0 1.58023 -1.42608 0.0 1.63294 -1.32501 0.0 1.68171 -1.22074 0.0 1.72643 -1.11354 0.0 1.76699 -1.00365 0.0 1.8033 -0.891339 0.0 1.83525 -0.776884 0.0 1.86279 -0.660558 0.0 1.88584 -0.54264 0.0 1.90435 -0.423415 0.0 1.91827 -0.30317 0.0 1.92757 -0.182195 0.0 1.93222 -0.0607804 0.0 1.93222 0.0607804 0.0 1.92757 0.182195 0.0 1.91827 0.30317 0.0 1.90435 0.423415 0.0 1.88584 0.54264 0.0 1.86279 0.660558 0.0 1.83525 0.776884 0.0 1.8033 0.891339 0.0 1.76699 1.00365 0.0 1.72643 1.11354 0.0 1.68171 1.22074 0.0 1.63294 1.32501 0.0 1.58023 1.42608 0.0 1.52372 1.52372 0.0 1.46354 1.61769 0.0 1.39983 1.70776 0.0 1.33275 1.79372 0.0 1.26246 1.87535 0.0 1.18912 1.95247 0.0 1.11293 2.02488 0.0 1.03405 2.09242 0.0 0.952677 2.15491 0.0 0.869012 2.21222 0.0 0.783253 2.26419 0.0 0.695608 2.31071 0.0 0.606286 2.35166 0.0 0.515504 2.38695 0.0 0.42348 2.41649 0.0 0.330436 2.4402 0.0 0.236596 2.45804 0.0 0.142186 2.46995 0.0 0.0474335 2.47592 0.0
0.044394 -2.56774 0.0 0.133075 -2.56156 0.0 0.221435 -2.5492 0.0 0.309262 -2.5307 0.0 0.396344 -2.50611 0.0 0.482471 -2.47548 0.0 0.567436 -2.43888 0.0 0.651034 -2.39641 0.0 0.733063 -2.34816 0.0 0.813327 -2.29426 0.0 0.891631 -2.23483 0.0 0.967787 -2.17002 0.0 1.04161 -2.09998 0.0 1.11293 -2.02488 0.0 1.18156 -1.9449 0.0 1.24735 -1.86024 0.0 1.31013 -1.7711 0.0 1.36976 -1.67769 0.0 1.42608 -1.58023 0.0 1.47897 -1.47897 0.0 1.5283 -1.37415 0.0 1.57395 -1.26602 0.0 1.6158 -1.15483 0.0 1.65376 -1.04087 0.0 1.68774 -0.924397 0.0 1.71765 -0.805697 0.0 1.74343 -0.685057 0.0 1.765 -0.562766 0.0 1.78232 -0.439119 0.0 1.79535 -0.314414 0.0 1.80405 -0.188952 0.0 1.80841 -0.0630346 0.0 1.80841 0.0630346 0.0 1.80405 0.188952 0.0 1.79535 0.314414 0.0 1.78232 0.439119 0.0 1.765 0.562766 0.0 1.74343 0.685057 0.0 1.71765 0.805697 0.0 1.68774 0.924397 0.0 1.65376 1.04087 0.0 1.6158 1.15483 0.0 1.57395 1.26602 0.0 1.5283 1.37415 0.0 1.47897 1.47897 0.0 1.42608 1.58023 0.0 1.36976 1.67769 0.0 1.31013 1.7711 0.0 1.24735 1.86024 0.0 1.18156 1.9449 0.0 1.11293 2.02488 0.0 1.04161 2.09998 0.0 0.967787 2.17002 0.0 0.891631 2.23483 0.0 0.813327 2.29426 0.0 0.733063 2.34816 0.0 0.651034 2.39641 0.0 0.567436 2.43888 0.0 0.482471 2.47548 0.0 0.396344 2.50611 0.0 0.309262 2.5307 0.0 0.221435 2.5492 0.0 0.133075 2.56156 0.0 0.044394 2.56774 0.0
0.0412475 -2.65339 0.0 0.123643 -2.64699 0.0 0.205741 -2.63423 0.0 0.287343 -2.61511 0.0 0.368253 -2.58969 0.0 0.448276 -2.55804 0.0 0.527219 -2.52022 0.0 0.604892 -2.47634 0.0 0.681107 -2.42648 0.0 0.755682 -2.37078 0.0 0.828436 -2.30937 0.0 0.899194 -2.2424 0.0 0.967787 -2.17002 0.0 1.03405 -2.09242 0.0 1.09782 -2.00977 0.0 1.15894 -1.92229 0.0 1.21727 -1.83017 0.0 1.27267 -1.73364 0.0 1.32501 -1.63294 0.0 1.37415 -1.5283 0.0 1.41998 -1.41998 0.0 1.46239 -1.30824 0.0 1.50128 -1.19335 0.0 1.53655 -1.07559 0.0 1.56812 -0.955228 0.0 1.59591 -0.83257 0.0 1.61986 -0.707905 0.0 1.63991 -0.581535 0.0 1.656 -0.453765 0.0 1.6681 -0.324901 0.0 1.67619 -0.195254 0.0 1.68024 -0.065137 0.0 1.68024 0.065137 0.0 1.67619 0.195254 0.0 1.6681 0.324901 0.0 1.656 0.453765 0.0 1.63991 0.581535 0.0 1.61986 0.707905 0.0 1.59591 0.83257 0.0 1.56812 0.955228 0.0 1.53655 1.07559 0.0 1.50128 1.19335 0.0 1.46239 1.30824 0.0 1.41998 1.41998 0.0 1.37415 1.5283 0.0 1.32501 1.63294 0.0 1.27267 1.73364 0.0 1.21727 1.83017 0.0 1.15894 1.92229 0.0 1.09782 2.00977 0.0 1.03405 2.09242 0.0 0.967787 2.17002 0.0 0.899194 2.2424 0.0 0.828436 2.30937 0.0 0.755682 2.37078 0.0 0.681107 2.42648 0.0 0.604892 2.47634 0.0 0.527219 2.52022 0.0 0.448276 2.55804 0.0 0.368253 2.58969 0.0 0.287343 2.61511 0.0 0.205741 2.63423 0.0 0.123643 2.64699 0.0 0.0412475 2.65339 0.0
0.0380017 -2.73264 0.0 0.113914 -2.72605 0.0 0.189551 -2.7129 0.0 0.264732 -2.69322 0.0 0.339275 -2.66704 0.0 0.413001 -2.63444 0.0 0.485732 -2.5955 0.0 0.557292 -2.5503 0.0 0.62751 -2.49895 0.0 0.696217 -2.44159 0.0 0.763246 -2.37835 0.0 0.828436 -2.30937 0.0 0.891631 -2.23483 0.0 0.952677 -2.15491 0.0 1.01143 -2.0698 0.0 1.06774 -1.9797 0.0 1.12149 -1.88483 0.0 1.17253 -1.78542 0.0 1.22074 -1.68171 0.0 1.26602 -1.57395 0.0 1.30824 -1.46239 0.0 1.34732 -1.34732 0.0 1.38314 -1.22899 0.0 1.41564 -1.10771 0.0 1.44473 -0.983758 0.0 1.47033 -0.857436 0.0 1.49239 -0.729048 0.0 1.51086 -0.598904 0.0 1.52569 -0.467317 0.0 1.53684 -0.334605 0.0 1.54429 -0.201086 0.0 1.54802 -0.0670824 0.0 1.54802 0.0670824 0.0 1.54429 0.201086 0.0 1.53684 0.334605 0.0 1.52569 0.467317 0.0 1.51086 0.598904 0.0 1.49239 0.729048 0.0 1.47033 0.857436 0.0 1.44473 0.983758 0.0 1.41564 1.10771 0.0 1.38314 1.22899 0.0 1.34732 1.34732 0.0 1.30824 1.46239 0.0 1.26602 1.57395 0.0 1.22074 1.68171 0.0 1.17253 1.78542 0.0 1.12149 1.88483 0.0 1.06774 1.9797 0.0 1.01143 2.0698 0.0 0.952677 2.15491 0.0 0.891631 2.23483 0.0 0.828436 2.30937 0.0 0.763246 2.37835 0.0 0.696217 2.44159 0.0 0.62751 2.49895 0.0 0.557292 2.5503 0.0 0.485732 2.5955 0.0 0.413001 2.63444 0.0 0.339275 2.66704 0.0 0.264732 2.69322 0.0 0.189551 2.7129 0.0 0.113914 2.72605 0.0 0.0380017 2.73264 0.0
0.0346644 -2.8053 0.0 0.10391 -2.79854 0.0 0.172905 -2.78504 0.0 0.241483 -2.76483 0.0 0.30948 -2.73796 0.0 0.376731 -2.7045 0.0 0.443074 -2.66452 0.0 0.50835 -2.61811 0.0 0.572402 -2.56541 0.0 0.635074 -2.50652 0.0 0.696217 -2.44159 0.0 0.755682 -2.37078 0.0 0.813327 -2.29426 0.0 0.869012 -2.21222 0.0 0.922604 -2.12484 0.0 0.973973 -2.03234 0.0 1.023 -1.93495 0.0 1.06955 -1.8329 0.0 1.11354 -1.72643 0.0 1.15483 -1.6158 0.0 1.19335 -1.50128 0.0 1.22899 -1.38314 0.0 1.26168 -1.26168 0.0 1.29132 -1.13717 0.0 1.31785 -1.00992 0.0 1.3412 -0.880237 0.0 1.36133 -0.748435 0.0 1.37818 -0.61483 0.0 1.3917 -0.479744 0.0 1.40187 -0.343502 0.0 1.40867 -0.206433 0.0 1.41207 -0.0688663 0.0 1.41207 0.0688663 0.0 1.40867 0.206433 0.0 1.40187 0.343502 0.0 1.3917 0.479744 0.0 1.37818 0.61483 0.0 1.36133 0.748435 0.0 1.3412 0.880237 0.0 1.31785 1.00992 0.0 1.29132 1.13717 0.0 1.26168 1.26168 0.0 1.22899 1.38314 0.0 1.19335 1.50128 0.0 1.15483 1.6158 0.0 1.11354 1.72643 0.0 1.06955 1.8329 0.0 1.023 1.93495 0.0 0.973973 2.03234 0.0 0.922604 2.12484 0.0 0.869012 2.21222 0.0 0.813327 2.29426 0.0 0.755682 2.37078 0.0 0.696217 2.44159 0.0 0.635074 2.50652 0.0 0.572402 2.56541 0.0 0.50835 2.61811 0.0 0.443074 2.66452 0.0 0.376731 2.7045 0.0 0.30948 2.73796 0.0 0.241483 2.76483 0.0 0.172905 2.78504 0.0 0.10391 2.79854 0.0 0.0346644 2.8053 0.0
0.0312435 -2.87121 0.0 0.0936553 -2.86429 0.0 0.155841 -2.85048 0.0 0.217652 -2.82979 0.0 0.278938 -2.80229 0.0 0.339553 -2.76804 0.0 0.399349 -2.72712 0.0 0.458183 -2.67962 0.0 0.515914 -2.62568 0.0 0.572402 -2.56541 0.0 0.62751 -2.49895 0.0 0.681107 -2.42648 0.0 0.733063 -2.34816 0.0 0.783253 -2.26419 0.0 0.831556 -2.17476 0.0 0.877856 -2.08009 0.0 0.922041 -1.98041 0.0 0.964005 -1.87596 0.0 1.00365 -1.76699 0.0 1.04087 -1.65376 0.0 1.07559 -1.53655 0.0 1.10771 -1.41564 0.0 1.13717 -1.29132 0.0 1.16388 -1.16388 0.0 1.1878 -1.03365 0.0 1.20885 -0.900917 0.0 1.22699 -0.766019 0.0 1.24217 -0.629275 0.0 1.25436 -0.491015 0.0 1.26353 -0.351573 0.0 1.26965 -0.211283 0.0 1.27272 -0.0704842 0.0 1.27272 0.0704842 0.0 1.26965 0.211283 0.0 1.26353 0.351573 0.0 1.25436 0.491015 0.0 1.24217 0.629275 0.0 1.22699 0.766019 0.0 1.20885 0.900917 0.0 1.1878 1.03365 0.0 1.16388 1.16388 0.0 1.13717 1.29132 0.0 1.10771 1.41564 0.0 1.07559 1.53655 0.0 1.04087 1.65376 0.0 1.00365 1.76699 0.0 0.964005 1.87596 0.0 0.922041 1.98041 0.0 0.877856 2.08009 0.0 0.831556 2.17476 0.0 0.783253 2.26419 0.0 0.733063 2.34816 0.0 0.681107 2.42648 0.0 0.62751 2.49895 0.0 0.572402 2.56541 0.0 0.515914 2.62568 0.0 0.458183 2.67962 0.0 0.399349 2.72712 0.0 0.339553 2.76804 0.0 0.278938 2.80229 0.0 0.217652 2.82979 0.0 0.155841 2.85048 0.0 0.0936553 2.86429 0.0 0.0312435 2.87121 0.0
0.0277474 -2.9302 0.0 0.0831753 -2.92314 0.0 0.138403 -2.90904 0.0 0.193297 -2.88793 0.0 0.247725 -2.85986 0.0 0.301557 -2.82491 0.0 0.354662 -2.78315 0.0 0.406913 -2.73468 0.0 0.458183 -2.67962 0.0 0.50835 -2.61811 0.0 0.557292 -2.5503 0.0 0.604892 -2.47634 0.0 0.651034 -2.39641 0.0 0.695608 -2.31071 0.0 0.738506 -2.21944 0.0 0.779625 -2.12283 0.0 0.818865 -2.0211 0.0 0.856133 -1.9145 0.0 0.891339 -1.8033 0.0 0.924397 -1.68774 0.0 0.955228 -1.56812 0.0 0.983758 -1.44473 0.0 1.00992 -1.31785 0.0 1.03365 -1.1878 0.0 1.05488 -1.05488 0.0 1.07358 -0.919427 0.0 1.08969 -0.781757 0.0 1.10317 -0.642204 0.0 1.114 -0.501104 0.0 1.12214 -0.358796 0.0 1.12758 -0.215624 0.0 1.1303 -0.0719324 0.0 1.1303 0.0719324 0.0 1.12758 0.215624 0.0 1.12214 0.358796 0.0 1.114 0.501104 0.0 1.10317 0.642204 0.0 1.08969 0.781757 0.0 1.07358 0.919427 0.0 1.05488 1.05488 0.0 1.03365 1.1878 0.0 1.00992 1.31785 0.0 0.983758 1.44473 0.0 0.955228 1.56812 0.0 0.924397 1.68774 0.0 0.891339 1.8033 0.0 0.856133 1.9145 0.0 0.818865 2.0211 0.0 0.779625 2.12283 0.0 0.738506 2.21944 0.0 0.695608 2.31071 0.0 0.651034 2.39641 0.0 0.604892 2.47634 0.0 0.557292 2.5503 0.0 0.50835 2.61811 0.0 0.458183 2.67962 0.0 0.406913 2.73468 0.0 0.354662 2.78315 0.0 0.301557 2.82491 0.0 0.247725 2.85986 0.0 0.193297 2.88793 0.0 0.138403 2.90904 0.0 0.0831753 2.92314 0.0 0.0277474 2.9302 0.0
0.0241844 -2.98213 0.0 0.072495 -2.97495 0.0 0.120631 -2.9606 0.0 0.168476 -2.93911 0.0 0.215916 -2.91055 0.0 0.262835 -2.87497 0.0 0.309121 -2.83247 0.0 0.354662 -2.78315 0.0 0.399349 -2.72712 0.0 0.443074 -2.66452 0.0 0.485732 -2.5955 0.0 0.527219 -2.52022 0.0 0.567436 -2.43888 0.0 0.606286 -2.35166 0.0 0.643676 -2.25878 0.0 0.679515 -2.16045 0.0 0.713717 -2.05692 0.0 0.746199 -1.94843 0.0 0.776884 -1.83525 0.0 0.805697 -1.71765 0.0 0.83257 -1.59591 0.0 0.857436 -1.47033 0.0 0.880237 -1.3412 0.0 0.900917 -1.20885 0.0 0.919427 -1.07358 0.0 0.935722 -0.935722 0.0 0.949763 -0.795612 0.0 0.961516 -0.653586 0.0 0.970952 -0.509985 0.0 0.978049 -0.365155 0.0 0.98279 -0.219445 0.0 0.985163 -0.0732072 0.0 0.985163 0.0732072 0.0 0.98279 0.219445 0.0 0.978049 0.365155 0.0 0.970952 0.509985 0.0 0.961516 0.653586 0.0 0.949763 0.795612 0.0 0.935722 0.935722 0.0 0.919427 1.07358 0.0 0.900917 1.20885 0.0 0.880237 1.3412 0.0 0.857436 1.47033 0.0 0.83257 1.59591 0.0 0.805697 1.71765 0.0 0.776884 1.83525 0.0 0.746199 1.94843 0.0 0.713717 2.05692 0.0 0.679515 2.16045 0.0 0.643676 2.25878 0.0 0.606286 2.35166 0.0 0.567436 2.43888 0.0 0.527219 2.52022 0.0 0.485732 2.5955 0.0 0.443074 2.66452 0.0 0.399349 2.72712 0.0 0.354662 2.78315 0.0 0.309121 2.83247 0.0 0.262835 2.87497 0.0 0.215916 2.91055 0.0 0.168476 2.93911 0.0 0.120631 2.9606 0.0 0.072495 2.97495 0.0 0.0241844 2.98213 0.0
0.0205632 -3.02688 0.0 0.06164 -3.01959 0.0 0.102568 -3.00502 0.0 0.143249 -2.98322 0.0 0.183586 -2.95422 0.0 0.223479 -2.91811 0.0 0.262835 -2.87497 0.0 0.301557 -2.82491 0.0 0.339553 -2.76804 0.0 0.376731 -2.7045 0.0 0.413001 -2.63444 0.0 0.448276 -2.55804 0.0 0.482471 -2.47548 0.0 0.515504 -2.38695 0.0 0.547295 -2.29267 0.0 0.577768 -2.19287 0.0 0.606849 -2.08779 0.0 0.634467 -1.97767 0.0 0.660558 -1.86279 0.0 0.685057 -1.74343 0.0 0.707905 -1.61986 0.0 0.729048 -1.49239 0.0 0.748435 -1.36133 0.0 0.766019 -1.22699 0.0 0.781757 -1.08969 0.0 0.795612 -0.949763 0.0 0.807551 -0.807551 0.0 0.817544 -0.663393 0.0 0.825567 -0.517637 0.0 0.831601 -0.370634 0.0 0.835633 -0.222738 0.0 0.83765 -0.0743057 0.0 0.83765 0.0743057 0.0 0.835633 0.222738 0.0 0.831601 0.370634 0.0 0.825567 0.517637 0.0 0.817544 0.663393 0.0 0.807551 0.807551 0.0 0.795612 0.949763 0.0 0.781757 1.08969 0.0 0.766019 1.22699 0.0 0.748435 1.36133 0.0 0.729048 1.49239 0.0 0.707905 1.61986 0.0 0.685057 1.74343 0.0 0.660558 1.86279 0.0 0.634467 1.97767 0.0 0.606849 2.08779 0.0 0.577768 2.19287 0.0 0.547295 2.29267 0.0 0.515504 2.38695 0.0 0.482471 2.47548 0.0 0.448276 2.55804 0.0 0.413001 2.63444 0.0 0.376731 2.7045 0.0 0.339553 2.76804 0.0 0.301557 2.82491 0.0 0.262835 2.87497 0.0 0.223479 2.91811 0.0 0.183586 2.95422 0.0 0.143249 2.98322 0.0 0.102568 3.00502 0.0 0.06164 3.01959 0.0 0.0205632 3.02688 0.0
0.0168924 -3.06434 0.0 0.0506365 -3.05695 0.0 0.0842586 -3.04221 0.0 0.117678 -3.02013 0.0 0.150813 -2.99078 0.0 0.183586 -2.95422 0.0 0.215916 -2.91055 0.0 0.247725 -2.85986 0.0 0.278938 -2.80229 0.0 0.30948 -2.73796 0.0 0.339275 -2.66704 0.0 0.368253 -2.58969 0.0 0.396344 -2.50611 0.0 0.42348 -2.41649 0.0 0.449596 -2.32104 0.0 0.474629 -2.22 0.0 0.498519 -2.11362 0.0 0.521207 -2.00214 0.0 0.54264 -1.88584 0.0 0.562766 -1.765 0.0 0.581535 -1.63991 0.0 0.598904 -1.51086 0.0 0.61483 -1.37818 0.0 0.629275 -1.24217 0.0 0.642204 -1.10317 0.0 0.653586 -0.961516 0.0 0.663393 -0.817544 0.0 0.671602 -0.671602 0.0 0.678193 -0.524042 0.0 0.68315 -0.37522 0.0 0.686462 -0.225494 0.0 0.68812 -0.0752252 0.0 0.68812 0.0752252 0.0 0.686462 0.225494 0.0 0.68315 0.37522 0.0 0.678193 0.524042 0.0 0.671602 0.671602 0.0 0.663393 0.817544 0.0 0.653586 0.961516 0.0 0.642204 1.10317 0.0 0.629275 1.24217 0.0 0.61483 1.37818 0.0 0.598904 1.51086 0.0 0.581535 1.63991 0.0 0.562766 1.765 0.0 0.54264 1.88584 0.0 0.521207 2.00214 0.0 0.498519 2.11362 0.0 0.474629 2.22 0.0 0.449596 2.32104 0.0 0.42348 2.41649 0.0 0.396344 2.50611 0.0 0.368253 2.58969 0.0 0.339275 2.66704 0.0 0.30948 2.73796 0.0 0.278938 2.80229 0.0 0.247725 2.85986 0.0 0.215916 2.91055 0.0 0.183586 2.95422 0.0 0.150813 2.99078 0.0 0.117678 3.02013 0.0 0.0842586 3.04221 0.0 0.0506365 3.05695 0.0 0.0168924 3.06434 0.0
0.0131809 -3.09441 0.0 0.039511 -3.08695 0.0 0.0657459 -3.07206 0.0 0.0918224 -3.04977 0.0 0.117678 -3.02013 0.0 0.143249 -2.98322 0.0 0.168476 -2.93911 0.0 0.193297 -2.88793 0.0 0.217652 -2.82979 0.0 0.241483 -2.76483 0.0 0.264732 -2.69322 0.0 0.287343 -2.61511 0.0 0.309262 -2.5307 0.0 0.330436 -2.4402 0.0 0.350814 -2.34382 0.0 0.370347 -2.24179 0.0 0.388988 -2.13436 0.0 0.406691 -2.02179 0.0 0.423415 -1.90435 0.0 0.439119 -1.78232 0.0 0.453765 -1.656 0.0 0.467317 -1.52569 0.0 0.479744 -1.3917 0.0 0.491015 -1.25436 0.0 0.501104 -1.114 0.0 0.509985 -0.970952 0.0 0.517637 -0.825567 0.0 0.524042 -0.678193 0.0 0.529185 -0.529185 0.0 0.533053 -0.378903 0.0 0.535637 -0.227707 0.0 0.536931 -0.0759635 0.0 0.536931 0.0759635 0.0 0.535637 0.227707 0.0 0.533053 0.378903 0.0 0.529185 0.529185 0.0 0.524042 0.678193 0.0 0.517637 0.825567 0.0 0.509985 0.970952 0.0 0.501104 1.114 0.0 0.491015 1.25436 0.0 0.479744 1.3917 0.0 0.467317 1.52569 0.0 0.453765 1.656 0.0 0.439119 1.78232 0.0 0.423415 1.90435 0.0 0.406691 2.02179 0.0 0.388988 2.13436 0.0 0.370347 2.24179 0.0 0.350814 2.34382 0.0 0.330436 2.4402 0.0 0.309262 2.5307 0.0 0.287343 2.61511 0.0 0.264732 2.69322 0.0 0.241483 2.76483 0.0 0.217652 2.82979 0.0 0.193297 2.88793 0.0 0.168476 2.93911 0.0 0.143249 2.98322 0.0 0.117678 3.02013 0.0 0.0918224 3.04977 0.0 0.0657459 3.07206 0.0 0.039511 3.08695 0.0 0.0131809 3.09441 0.0
0.00943768 -3.11703 0.0 0.0282903 -3.10952 0.0 0.0470748 -3.09452 0.0 0.0657459 -3.07206 0.0 0.0842586 -3.04221 0.0 0.102568 -3.00502 0.0 0.120631 -2.9606 0.0 0.138403 -2.90904 0.0 0.155841 -2.85048 0.0 0.172905 -2.78504 0.0 0.189551 -2.7129 0.0 0.205741 -2.63423 0.0 0.221435 -2.5492 0.0 0.236596 -2.45804 0.0 0.251187 -2.36095 0.0 0.265173 -2.25818 0.0 0.27852 -2.14996 0.0 0.291196 -2.03657 0.0 0.30317 -1.91827 0.0 0.314414 -1.79535 0.0 0.324901 -1.6681 0.0 0.334605 -1.53684 0.0 0.343502 -1.40187 0.0 0.351573 -1.26353 0.0 0.358796 -1.12214 0.0 0.365155 -0.978049 0.0 0.370634 -0.831601 0.0 0.37522 -0.68315 0.0 0.378903 -0.533053 0.0 0.381672 -0.381672 0.0 0.383522 -0.229372 0.0 0.384449 -0.0765187 0.0 0.384449 0.0765187 0.0 0.383522 0.229372 0.0 0.381672 0.381672 0.0 0.378903 0.533053 0.0 0.37522 0.68315 0.0 0.370634 0.831601 0.0 0.365155 0.978049 0.0 0.358796 1.12214 0.0 0.351573 1.26353 0.0 0.343502 1.40187 0.0 0.334605 1.53684 0.0 0.324901 1.6681 0.0 0.314414 1.79535 0.0 0.30317 1.91827 0.0 0.291196 2.03657 0.0 0.27852 2.14996 0.0 0.265173 2.25818 0.0 0.251187 2.36095 0.0 0.236596 2.45804 0.0 0.221435 2.5492 0.0 0.205741 2.63423 0.0 0.189551 2.7129 0.0 0.172905 2.78504 0.0 0.155841 2.85048 0.0 0.138403 2.90904 0.0 0.120631 2.9606 0.0 0.102568 3.00502 0.0 0.0842586 3.04221 0.0 0.0657459 3.07206 0.0 0.0470748 3.09452 0.0 0.0282903 3.10952 0.0 0.00943768 3.11703 0.0
0.00567172 -3.13214 0.0 0.0170015 -3.12459 0.0 0.0282903 -3.10952 0.0 0.039511 -3.08695 0.0 0.0506365 -3.05695 0.0 0.06164 -3.01959 0.0 0.072495 -2.97495 0.0 0.0831753 -2.92314 0.0 0.0936553 -2.86429 0.0 0.10391 -2.79854 0.0 0.113914 -2.72605 0.0 0.123643 -2.64699 0.0 0.133075 -2.56156 0.0 0.142186 -2.46995 0.0 0.150955 -2.3724 0.0 0.15936 -2.26912 0.0 0.167381 -2.16039 0.0 0.174998 -2.04644 0.0 0.182195 -1.92757 0.0 0.188952 -1.80405 0.0 0.195254 -1.67619 0.0 0.201086 -1.54429 0.0 0.206433 -1.40867 0.0 0.211283 -1.26965 0.0 0.215624 -1.12758 0.0 0.219445 -0.98279 0.0 0.222738 -0.835633 0.0 0.225494 -0.686462 0.0 0.227707 -0.535637 0.0 0.229372 -0.383522 0.0 0.230484 -0.230484 0.0 0.23104 -0.0768896 0.0 0.23104 0.0768896 0.0 0.230484 0.230484 0.0 0.229372 0.383522 0.0 0.227707 0.535637 0.0 0.225494 0.686462 0.0 0.222738 0.835633 0.0 0.219445 0.98279 0.0 0.215624 1.12758 0.0 0.211283 1.26965 0.0 0.206433 1.40867 0.0 0.201086 1.54429 0.0 0.195254 1.67619 0.0 0.188952 1.80405 0.0 0.182195 1.92757 0.0 0.174998 2.04644 0.0 0.167381 2.16039 0.0 0.15936 2.26912 0.0 0.150955 2.3724 0.0 0.142186 2.46995 0.0 0.133075 2.56156 0.0 0.123643 2.64699 0.0 0.113914 2.72605 0.0 0.10391 2.79854 0.0 0.0936553 2.86429 0.0 0.0831753 2.92314 0.0 0.072495 2.97495 0.0 0.06164 3.01959 0.0 0.0506365 3.05695 0.0 0.039511 3.08695 0.0 0.0282903 3.10952 0.0 0.0170015 3.12459 0.0 0.00567172 3.13214 0.0
0.00189209 -3.1397 0.0 0.00567172 -3.13214 0.0 0.00943768 -3.11703 0.0 0.0131809 -3.09441 0.0 0.0168924 -3.06434 0.0 0.0205632 -3.02688 0.0 0.0241844 -2.98213 0.0 0.0277474 -2.9302 0.0 0.0312435 -2.87121 0.0 0.0346644 -2.8053 0.0 0.0380017 -2.73264 0.0 0.0412475 -2.65339 0.0 0.044394 -2.56774 0.0 0.0474335 -2.47592 0.0 0.0503587 -2.37813 0.0 0.0531626 -2.2746 0.0 0.0558384 -2.1656 0.0 0.0583797 -2.05138 0.0 0.0607804 -1.93222 0.0 0.0630346 -1.80841 0.0 0.065137 -1.68024 0.0 0.0670824 -1.54802 0.0 0.0688663 -1.41207 0.0 0.0704842 -1.27272 0.0 0.0719324 -1.1303 0.0 0.0732072 -0.985163 0.0 0.0743057 -0.83765 0.0 0.0752252 -0.68812 0.0 0.0759635 -0.536931 0.0 0.0765187 -0.384449 0.0 0.0768896 -0.23104 0.0 0.0770753 -0.0770753 0.0 0.0770753 0.0770753 0.0 0.0768896 0.23104 0.0 0.0765187 0.384449 0.0 0.0759635 0.536931 0.0 0.0752252 0.68812 0.0 0.0743057 0.83765 0.0 0.0732072 0.985163 0.0 0.0719324 1.1303 0.0 0.0704842 1.27272 0.0 0.0688663 1.41207 0.0 0.0670824 1.54802 0.0 0.065137 1.68024 0.0 0.0630346 1.80841 0.0 0.0607804 1.93222 0.0 0.0583797 2.05138 0.0 0.0558384 2.1656 0.0 0.0531626 2.2746 0.0 0.0503587 2.37813 0.0 0.0474335 2.47592 0.0 0.044394 2.56774 0.0 0.0412475 2.65339 0.0 0.0380017 2.73264 0.0 0.0346644 2.8053 0.0 0.0312435 2.87121 0.0 0.0277474 2.9302 0.0 0.0241844 2.98213 0.0 0.0205632 3.02688 0.0 0.0168924 3.06434 0.0 0.0131809 3.09441 0.0 0.00943768 3.11703 0.0 0.00567172 3.13214 0.0 0.00189209 3.1397 0.0
-0.00189209 -3.1397 0.0 -0.00567172 -3.13214 0.0 -0.00943768 -3.11703 0.0 -0.0131809 -3.09441 0.0 -0.0168924 -3.06434 0.0 -0.0205632 -3.02688 0.0 -0.0241844 -2.98213 0.0 -0.0277474 -2.9302 0.0 -0.0312435 -2.87121 0.0 -0.0346644 -2.8053 0.0 -0.0380017 -2.73264 0.0 -0.0412475 -2.65339 0.0 -0.044394 -2.56774 0.0 -0.0474335 -2.47592 0.0 -0.0503587 -2.37813 0.0 -0.0531626 -2.2746 0.0 -0.0558384 -2.1656 0.0 -0.0583797 -2.05138 0.0 -0.0607804 -1.93222 0.0 -0.0630346 -1.80841 0.0 -0.065137 -1.68024 0.0 -0.0670824 -1.54802 0.0 -0.0688663 -1.41207 0.0 -0.0704842 -1.27272 0.0 -0.0719324 -1.1303 0.0 -0.0732072 -0.985163 0.0 -0.0743057 -0.83765 0.0 -0.0752252 -0.68812 0.0 -0.0759635 -0.536931 0.0 -0.0765187 -0.384449 0.0 -0.0768896 -0.23104 0.0 -0.0770753 -0.0770753 0.0 -0.0770753 0.0770753 0.0 -0.0768896 0.23104 0.0 -0.0765187 0.384449 0.0 -0.0759635 0.536931 0.0 -0.0752252 0.68812 0.0 -0.0743057 0.83765 0.0 -0.0732072 0.985163 0.0 -0.0719324 1.1303 0.0 -0.0704842 1.27272 0.0 -0.0688663 1.41207 0.0 -0.0670824 1.54802 0.0 -0.065137 1.68024 0.0 -0.0630346 1.80841 0.0 -0.0607804 1.93222 0.0 -0.0583797 2.05138 0.0 -0.0558384 2.1656 0.0 -0.0531626 2.2746 0.0 -0.0503587 2.37813 0.0 -0.0474335 2.47592 0.0 -0.044394 2.56774 0.0 -0.0412475 2.65339 0.0 -0.0380017 2.73264 0.0 -0.0346644 2.8053 0.0 -0.0312435 2.87121 0.0 -0.0277474 2.9302 0.0 -0.0241844 2.98213 0.0 -0.0205632 3.02688 0.0 -0.0168924 3.06434 0.0 -0.0131809 3.09441 0.0 -0.00943768 3.11703 0.0 -0.00567172 3.13214 0.0 -0.00189209 3.1397 0.0
-0.00567172 -3.13214 0.0 -0.0170015 -3.12459 0.0 -0.0282903 -3.10952 0.0 -0.039511 -3.08695 0.0 -0.0506365 -3.05695 0.0 -0.06164 -3.01959 0.0 -0.072495 -2.97495 0.0 -0.0831753 -2.92314 0.0 -0.0936553 -2.86429 0.0 -0.10391 -2.79854 0.0 -0.113914 -2.72605 0.0 -0.123643 -2.64699 0.0 -0.133075 -2.56156 0.0 -0.142186 -2.46995 0.0 -0.150955 -2.3724 0.0 -0.15936 -2.26912 0.0 -0.167381 -2.16039 0.0 -0.174998 -2.04644 0.0 -0.182195 -1.92757 0.0 -0.188952 -1.80405 0.0 -0.195254 -1.67619 0.0 -0.201086 -1.54429 0.0 -0.206433 -1.40867 0.0 -0.211283 -1.26965 0.0 -0.215624 -1.12758 0.0 -0.219445 -0.98279 0.0 -0.222738 -0.835633 0.0 -0.225494 -0.686462 0.0 -0.227707 -0.535637 0.0 -0.229372 -0.383522 0.0 -0.230484 -0.230484 0.0 -0.23104 -0.0768896 0.0 -0.23104 0.0768896 0.0 -0.230484 0.230484 0.0 -0.229372 0.383522 0.0 -0.227707 0.535637 0.0 -0.225494 0.686462 0.0 -0.222738 0.835633 0.0 -0.219445 0.98279 0.0 -0.215624 1.12758 0.0 -0.211283 1.26965 0.0 -0.206433 1.40867 0.0 -0.201086 1.54429 0.0 -0.195254 1.67619 0.0 -0.188952 1.80405 0.0 -0.182195 1.92757 0.0 -0.174998 2.04644 0.0 -0.167381 2.16039 0.0 -0.15936 2.26912 0.0 -0.150955 2.3724 0.0 -0.142186 2.46995 0.0 -0.133075 2.56156 0.0 -0.123643 2.64699 0.0 -0.113914 2.72605 0.0 -0.10391 2.79854 0.0 -0.0936553 2.86429 0.0 -0.0831753 2.92314 0.0 -0.072495 2.97495 0.0 -0.06164 3.01959 0.0 -0.0506365 3.05695 0.0 -0.039511 3.08695 0.0 -0.0282903 3.10952 0.0 -0.0170015 3.12459 0.0 -0.00567172 3.13214 0.0
-0.00943768 -3.11703 0.0 -0.0282903 -3.10952 0.0 -0.0470748 -3.09452 0.0 -0.0657459 -3.07206 0.0 -0.0842586 -3.04221 0.0 -0.102568 -3.00502 0.0 -0.120631 -2.9606 0.0 -0.138403 -2.90904 0.0 -0.155841 -2.85048 0.0 -0.172905 -2.78504 0.0 -0.189551 -2.7129 0.0 -0.205741 -2.63423 0.0 -0.221435 -2.5492 0.0 -0.236596 -2.45804 0.0 -0.251187 -2.36095 0.0 -0.265173 -2.25818 0.0 -0.27852 -2.14996 0.0 -0.291196 -2.03657 0.0 -0.30317 -1.91827 0.0 -0.314414 -1.79535 0.0 -0.324901 -1.6681 0.0 -0.334605 -1.53684 0.0 -0.343502 -1.40187 0.0 -0.351573 -1.26353 0.0 -0.358796 -1.12214 0.0 -0.365155 -0.978049 0.0 -0.370634 -0.831601 0.0 -0.37522 -0.68315 0.0 -0.378903 -0.533053 0.0 -0.381672 -0.381672 0.0 -0.383522 -0.229372 0.0 -0.384449 -0.0765187 0.0 -0.384449 0.0765187 0.0 -0.383522 0.229372 0.0 -0.381672 0.381672 0.0 -0.378903 0.533053 0.0 -0.37522 0.68315 0.0 -0.370634 0.831601 0.0 -0.365155 0.978049 0.0 -0.358796 1.12214 0.0 -0.351573 1.26353 0.0 -0.343502 1.40187 0.0 -0.334605 1.53684 0.0 -0.324901 1.6681 0.0 -0.314414 1.79535 0.0 -0.30317 1.91827 0.0 -0.291196 2.03657 0.0 -0.27852 2.14996 0.0 -0.265173 2.25818 0.0 -0.251187 2.36095 0.0 -0.236596 2.45804 0.0 -0.221435 2.5492 0.0 -0.205741 2.63423 0.0 -0.189551 2.7129 0.0 -0.172905 2.78504 0.0 -0.155841 2.85048 0.0 -0.138403 2.90904 0.0 -0.120631 2.9606 0.0 -0.102568 3.00502 0.0 -0.0842586 3.04221 0.0 -0.0657459 3.07206 0.0 -0.0470748 3.09452 0.0 -0.0282903 3.10952 0.0 -0.00943768 3.11703 0.0
-0.0131809 -3.09441 0.0 -0.039511 -3.08695 0.0 -0.0657459 -3.07206 0.0 -0.0918224 -3.04977 0.0 -0.117678 -3.02013 0.0 -0.143249 -2.98322 0.0 -0.168476 -2.93911 0.0 -0.193297 -2.88793 0.0 -0.217652 -2.82979 0.0 -0.241483 -2.76483 0.0 -0.264732 -2.69322 0.0 -0.287343 -2.61511 0.0 -0.309262 -2.5307 0.0 -0.330436 -2.4402 0.0 -0.350814 -2.34382 0.0 -0.370347 -2.24179 0.0 -0.388988 -2.13436 0.0 -0.406691 -2.02179 0.0 -0.423415 -1.90435 0.0 -0.439119 -1.78232 0.0 -0.453765 -1.656 0.0 -0.467317 -1.52569 0.0 -0.479744 -1.3917 0.0 -0.491015 -1.25436 0.0 -0.501104 -1.114 0.0 -0.509985 -0.970952 0.0 -0.517637 -0.825567 0.0 -0.524042 -0.678193 0.0 -0.529185 -0.529185 0.0 -0.533053 -0.378903 0.0 -0.535637 -0.227707 0.0 -0.536931 -0.0759635 0.0 -0.536931 0.0759635 0.0 -0.535637 0.227707 0.0 -0.533053 0.378903 0.0 -0.529185 0.529185 0.0 -0.524042 0.678193 0.0 -0.517637 0.825567 0.0 -0.509985 0.970952 0.0 -0.501104 1.114 0.0 -0.491015 1.25436 0.0 -0.479744 1.3917 0.0 -0.467317 1.52569 0.0 -0.453765 1.656 0.0 -0.439119 1.78232 0.0 -0.423415 1.90435 0.0 -0.406691 2.02179 0.0 -0.388988 2.13436 0.0 -0.370347 2.24179 0.0 -0.350814 2.34382 0.0 -0.330436 2.4402 0.0 -0.309262 2.5307 0.0 -0.287343 2.61511 0.0 -0.264732 2.69322 0.0 -0.241483 2.76483 0.0 -0.217652 2.82979 0.0 -0.193297 2.88793 0.0 -0.168476 2.93911 0.0 -0.143249 2.98322 0.0 -0.117678 3.02013 0.0 -0.0918224 3.04977 0.0 -0.0657459 3.07206 0.0 -0.039511 3.08695 0.0 -0.0131809 3.09441 0.0
-0.0168924 -3.06434 0.0 -0.0506365 -3.05695 0.0 -0.0842586 -3.04221 0.0 -0.117678 -3.02013 0.0 -0.150813 -2.99078 0.0 -0.183586 -2.95422 0.0 -0.215916 -2.91055 0.0 -0.247725 -2.85986 0.0 -0.278938 -2.80229 0.0 -0.30948 -2.73796 0.0 -0.339275 -2.66704 0.0 -0.368253 -2.58969 0.0 -0.396344 -2.50611 0.0 -0.42348 -2.41649 0.0 -0.449596 -2.32104 0.0 -0.474629 -2.22 0.0 -0.498519 -2.11362 0.0 -0.521207 -2.00214 0.0 -0.54264 -1.88584 0.0 -0.562766 -1.765 0.0 -0.581535 -1.63991 0.0 -0.598904 -1.51086 0.0 -0.61483 -1.37818 0.0 -0.629275 -1.24217 0.0 -0.642204 -1.10317 0.0 -0.653586 -0.961516 0.0 -0.663393 -0.817544 0.0 -0.671602 -0.671602 0.0 -0.678193 -0.524042 0.0 -0.68315 -0.37522 0.0 -0.686462 -0.225494 0.0 -0.68812 -0.0752252 0.0 -0.68812 0.0752252 0.0 -0.686462 0.225494 0.0 -0.68315 0.37522 0.0 -0.678193 0.524042 0.0 -0.671602 0.671602 0.0 -0.663393 0.817544 0.0 -0.653586 0.961516 0.0 -0.642204 1.10317 0.0 -0.629275 1.24217 0.0 -0.61483 1.37818 0.0 -0.598904 1.51086 0.0 -0.581535 1.63991 0.0 -0.562766 1.765 0.0 -0.54264 1.88584 0.0 -0.521207 2.00214 0.0 -0.498519 2.11362 0.0 -0.474629 2.22 0.0 -0.449596 2.32104 0.0 -0.42348 2.41649 0.0 -0.396344 2.50611 0.0 -0.368253 2.58969 0.0 -0.339275 2.66704 0.0 -0.30948 2.73796 0.0 -0.278938 2.80229 0.0 -0.247725 2.85986 0.0 -0.215916 2.91055 0.0 -0.183586 2.95422 0.0 -0.150813 2.99078 0.0 -0.117678 3.02013 0.0 -0.0842586 3.04221 0.0 -0.0506365 3.05695 0.0 -0.0168924 3.06434 0.0
-0.0205632 -3.02688 0.0 -0.06164 -3.01959 0.0 -0.102568 -3.00502 0.0 -0.143249 -2.98322 0.0 -0.183586 -2.95422 0.0 -0.223479 -2.91811 0.0 -0.262835 -2.87497 0.0 -0.301557 -2.82491 0.0 -0.339553 -2.76804 0.0 -0.376731 -2.7045 0.0 -0.413001 -2.63444 0.0 -0.448276 -2.55804 0.0 -0.482471 -2.47548 0.0 -0.515504 -2.38695 0.0 -0.547295 -2.29267 0.0 -0.577768 -2.19287 0.0 -0.606849 -2.08779 0.0 -0.634467 -1.97767 0.0 -0.660558 -1.86279 0.0 -0.685057 -1.74343 0.0 -0.707905 -1.61986 0.0 -0.729048 -1.49239 0.0 -0.748435 -1.36133 0.0 -0.766019 -1.22699 0.0 -0.781757 -1.08969 0.0 -0.795612 -0.949763 0.0 -0.807551 -0.807551 0.0 -0.817544 -0.663393 0.0 -0.825567 -0.517637 0.0 -0.831601 -0.370634 0.0 -0.835633 -0.222738 0.0 -0.83765 -0.0743057 0.0 -0.83765 0.0743057 0.0 -0.835633 0.222738 0.0 -0.831601 0.370634 0.0 -0.825567 0.517637 0.0 -0.817544 0.663393 0.0 -0.807551 0.807551 0.0 -0.795612 0.949763 0.0 -0.781757 1.08969 0.0 -0.766019 1.22699 0.0 -0.748435 1.36133 0.0 -0.729048 1.49239 0.0 -0.707905 1.61986 0.0 -0.685057 1.74343 0.0 -0.660558 1.86279 0.0 -0.634467 1.97767 0.0 -0.606849 2.08779 0.0 -0.577768 2.19287 0.0 -0.547295 2.29267 0.0 -0.515504 2.38695 0.0 -0.482471 2.47548 0.0 -0.448276 2.55804 0.0 -0.413001 2.63444 0.0 -0.376731 2.7045 0.0 -0.339553 2.76804 0.0 -0.301557 2.82491 0.0 -0.262835 2.87497 0.0 -0.223479 2.91811 0.0 -0.183586 2.95422 0.0 -0.143249 2.98322 0.0 -0.102568 3.00502 0.0 -0.06164 3.01959 0.0 -0.0205632 3.02688 0.0
-0.0241844 -2.98213 0.0 -0.072495 -2.97495 0.0 -0.120631 -2.9606 0.0 -0.168476 -2.93911 0.0 -0.215916 -2.91055 0.0 -0.262835 -2.87497 0.0 -0.309121 -2.83247 0.0 -0.354662 -2.78315 0.0 -0.399349 -2.72712 0.0 -0.443074 -2.66452 0.0 -0.485732 -2.5955 0.0 -0.527219 -2.52022 0.0 -0.567436 -2.43888 0.0 -0.606286 -2.35166 0.0 -0.643676 -2.25878 0.0 -0.679515 -2.16045 0.0 -0.713717 -2.05692 0.0 -0.746199 -1.94843 0.0 -0.776884 -1.83525 0.0 -0.805697 -1.71765 0.0 -0.83257 -1.59591 0.0 -0.857436 -1.47033 0.0 -0.880237 -1.3412 0.0 -0.900917 -1.20885 0.0 -0.919427 -1.07358 0.0 -0.935722 -0.935722 0.0 -0.949763 -0.795612 0.0 -0.961516 -0.653586 0.0 -0.970952 -0.509985 0.0 -0.978049 -0.365155 0.0 -0.98279 -0.219445 0.0 -0.985163 -0.0732072 0.0 -0.985163 0.0732072 0.0 -0.98279 0.219445 0.0 -0.978049 0.365155 0.0 -0.970952 0.509985 0.0 -0.961516 0.653586 0.0 -0.949763 0.795612 0.0 -0.935722 0.935722 0.0 -0.919427 1.07358 0.0 -0.900917 1.20885 0.0 -0.880237 1.3412 0.0 -0.857436 1.47033 0.0 -0.83257 1.59591 0.0 -0.805697 1.71765 0.0 -0.776884 1.83525 0.0 -0.746199 1.94843 0.0 -0.713717 2.05692 0.0 -0.679515 2.16045 0.0 -0.643676 2.25878 0.0 -0.606286 2.35166 0.0 -0.567436 2.43888 0.0 -0.527219 2.52022 0.0 -0.485732 2.5955 0.0 -0.443074 2.66452 0.0 -0.399349 2.72712 0.0 -0.354662 2.78315 0.0 -0.309121 2.83247 0.0 -0.262835 2.87497 0.0 -0.215916 2.91055 0.0 -0.168476 2.93911 0.0 -0.120631 2.9606 0.0 -0.072495 2.97495 0.0 -0.0241844 2.98213 0.0
-0.0277474 -2.9302 0.0 -0.0831753 -2.92314 0.0 -0.138403 -2.90904 0.0 -0.193297 -2.88793 0.0 -0.247725 -2.85986 0.0 -0.301557 -2.82491 0.0 -0.354662 -2.78315 0.0 -0.406913 -2.73468 0.0 -0.458183 -2.67962 0.0 -0.50835 -2.61811 0.0 -0.557292 -2.5503 0.0 -0.604892 -2.47634 0.0 -0.651034 -2.39641 0.0 -0.695608 -2.31071 0.0 -0.738506 -2.21944 0.0 -0.779625 -2.12283 0.0 -0.818865 -2.0211 0.0 -0.856133 -1.9145 0.0 -0.891339 -1.8033 0.0 -0.924397 -1.68774 0.0 -0.955228 -1.56812 0.0 -0.983758 -1.44473 0.0 -1.00992 -1.31785 0.0 -1.03365 -1.1878 0.0 -1.05488 -1.05488 0.0 -1.07358 -0.919427 0.0 -1.08969 -0.781757 0.0 -1.10317 -0.642204 0.0 -1.114 -0.501104 0.0 -1.12214 -0.358796 0.0 -1.12758 -0.215624 0.0 -1.1303 -0.0719324 0.0 -1.1303 0.0719324 0.0 -1.12758 0.215624 0.0 -1.12214 0.358796 0.0 -1.114 0.501104 0.0 -1.10317 0.642204 0.0 -1.08969 0.781757 0.0 -1.07358 0.919427 0.0 -1.05488 1.05488 0.0 -1.03365 1.1878 0.0 -1.00992 1.31785 0.0 -0.983758 1.44473 0.0 -0.955228 1.56812 0.0 -0.924397 1.68774 0.0 -0.891339 1.8033 0.0 -0.856133 1.9145 0.0 -0.818865 2.0211 0.0 -0.779625 2.12283 0.0 -0.738506 2.21944 0.0 -0.695608 2.31071 0.0 -0.651034 2.39641 0.0 -0.604892 2.47634 0.0 -0.557292 2.5503 0.0 -0.50835 2.61811 0.0 -0.458183 2.67962 0.0 -0.406913 2.73468 0.0 -0.354662 2.78315 0.0 -0.301557 2.82491 0.0 -0.247725 2.85986 0.0 -0.193297 2.88793 0.0 -0.138403 2.90904 0.0 -0.0831753 2.92314 0.0 -0.0277474 2.9302 0.0
-0.0312435 -2.87121 0.0 -0.0936553 -2.86429 0.0 -0.155841 -2.85048 0.0 -0.217652 -2.82979 0.0 -0.278938 -2.80229 0.0 -0.339553 -2.76804 0.0 -0.399349 -2.72712 0.0 -0.458183 -2.67962 0.0 -0.515914 -2.62568 0.0 -0.572402 -2.56541 0.0 -0.62751 -2.49895 0.0 -0.681107 -2.42648 0.0 -0.733063 -2.34816 0.0 -0.783253 -2.26419 0.0 -0.831556 -2.17476 0.0 -0.877856 -2.08009 0.0 -0.922041 -1.98041 0.0 -0.964005 -1.87596 0.0 -1.00365 -1.76699 0.0 -1.04087 -1.65376 0.0 -1.07559 -1.53655 0.0 -1.10771 -1.41564 0.0 -1.13717 -1.29132 0.0 -1.16388 -1.16388 0.0 -1.1878 -1.03365 0.0 -1.20885 -0.900917 0.0 -1.22699 -0.766019 0.0 -1.24217 -0.629275 0.0 -1.25436 -0.491015 0.0 -1.26353 -0.351573 0.0 -1.26965 -0.211283 0.0 -1.27272 -0.0704842 0.0 -1.27272 0.0704842 0.0 -1.26965 0.211283 0.0 -1.26353 0.351573 0.0 -1.25436 0.491015 0.0 -1.24217 0.629275 0.0 -1.22699 0.766019 0.0 -1.20885 0.900917 0.0 -1.1878 1.03365 0.0 -1.16388 1.16388 0.0 -1.13717 1.29132 0.0 -1.10771 1.41564 0.0 -1.07559 1.53655 0.0 -1.04087 1.65376 0.0 -1.00365 1.76699 0.0 -0.964005 1.87596 0.0 -0.922041 1.98041 0.0 -0.877856 2.08009 0.0 -0.831556 2.17476 0.0 -0.783253 2.26419 0.0 -0.733063 2.34816 0.0 -0.681107 2.42648 0.0 -0.62751 2.49895 0.0 -0.572402 2.56541 0.0 -0.515914 2.62568 0.0 -0.458183 2.67962 0.0 -0.399349 2.72712 0.0 -0.339553 2.76804 0.0 -0.278938 2.80229 0.0 -0.217652 2.82979 0.0 -0.155841 2.85048 0.0 -0.0936553 2.86429 0.0 -0.0312435 2.87121 0.0
-0.0346644 -2.8053 0.0 -0.10391 -2.79854 0.0 -0.172905 -2.78504 0.0 -0.241483 -2.76483 0.0 -0.30948 -2.73796 0.0 -0.376731 -2.7045 0.0 -0.443074 -2.66452 0.0 -0.50835 -2.61811 0.0 -0.572402 -2.56541 0.0 -0.635074 -2.50652 0.0 -0.696217 -2.44159 0.0 -0.755682 -2.37078 0.0 -0.813327 -2.29426 0.0 -0.869012 -2.21222 0.0 -0.922604 -2.12484 0.0 -0.973973 -2.03234 0.0 -1.023 -1.93495 0.0 -1.06955 -1.8329 0.0 -1.11354 -1.72643 0.0 -1.15483 -1.6158 0.0 -1.19335 -1.50128 0.0 -1.22899 -1.38314 0.0 -1.26168 -1.26168 0.0 -1.29132 -1.13717 0.0 -1.31785 -1.00992 0.0 -1.3412 -0.880237 0.0 -1.36133 -0.748435 0.0 -1.37818 -0.61483 0.0 -1.3917 -0.479744 0.0 -1.40187 -0.343502 0.0 -1.40867 -0.206433 0.0 -1.41207 -0.0688663 0.0 -1.41207 0.0688663 0.0 -1.40867 0.206433 0.0 -1.40187 0.343502 0.0 -1.3917 0.479744 0.0 -1.37818 0.61483 0.0 -1.36133 0.748435 0.0 -1.3412 0.880237 0.0 -1.31785 1.00992 0.0 -1.29132 1.13717 0.0 -1.26168 1.26168 0.0 -1.22899 1.38314 0.0 -1.19335 1.50128 0.0 -1.15483 1.6158 0.0 -1.11354 1.72643 0.0 -1.06955 1.8329 0.0 -1.023 1.93495 0.0 -0.973973 2.03234 0.0 -0.922604 2.12484 0.0 -0.869012 2.21222 0.0 -0.813327 2.29426 0.0 -0.755682 2.37078 0.0 -0.696217 2.44159 0.0 -0.635074 2.50652 0.0 -0.572402 2.56541 0.0 -0.50835 2.61811 0.0 -0.443074 2.66452 0.0 -0.376731 2.7045 0.0 -0.30948 2.73796 0.0 -0.241483 2.76483 0.0 -0.172905 2.78504 0.0 -0.10391 2.79854 0.0 -0.0346644 2.8053 0.0
-0.0380017 -2.73264 0.0 -0.113914 -2.72605 0.0 -0.189551 -2.7129 0.0 -0.264732 -2.69322 0.0 -0.339275 -2.66704 0.0 -0.413001 -2.63444 0.0 -0.485732 -2.5955 0.0 -0.557292 -2.5503 0.0 -0.62751 -2.49895 0.0 -0.696217 -2.44159 0.0 -0.763246 -2.37835 0.0 -0.828436 -2.30937 0.0 -0.891631 -2.23483 0.0 -0.952677 -2.15491 0.0 -1.01143 -2.0698 0.0 -1.06774 -1.9797 0.0 -1.12149 -1.88483 0.0 -1.17253 -1.78542 0.0 -1.22074 -1.68171 0.0 -1.26602 -1.57395 0.0 -1.30824 -1.46239 0.0 -1.34732 -1.34732 0.0 -1.38314 -1.22899 0.0 -1.41564 -1.10771 0.0 -1.44473 -0.983758 0.0 -1.47033 -0.857436 0.0 -1.49239 -0.729048 0.0 -1.51086 -0.598904 0.0 -1.52569 -0.467317 0.0 -1.53684 -0.334605 0.0 -1.54429 -0.201086 0.0 -1.54802 -0.0670824 0.0 -1.54802 0.0670824 0.0 -1.54429 0.201086 0.0 -1.53684 0.334605 0.0 -1.52569 0.467317 0.0 -1.51086 0.598904 0.0 -1.49239 0.729048 0.0 -1.47033 0.857436 0.0 -1.44473 0.983758 0.0 -1.41564 1.10771 0.0 -1.38314 1.22899 0.0 -1.34732 1.34732 0.0 -1.30824 1.46239 0.0 -1.26602 1.57395 0.0 -1.22074 1.68171 0.0 -1.17253 1.78542 0.0 -1.12149 1.88483 0.0 -1.06774 1.9797 0.0 -1.01143 2.0698 0.0 -0.952677 2.15491 0.0 -0.891631 2.23483 0.0 -0.828436 2.30937 0.0 -0.763246 2.37835 0.0 -0.696217 2.44159 0.0 -0.62751 2.49895 0.0 -0.557292 2.5503 0.0 -0.485732 2.5955 0.0 -0.413001 2.63444 0.0 -0.339275 2.66704 0.0 -0.264732 2.69322 0.0 -0.189551 2.7129 0.0 -0.113914 2.72605 0.0 -0.0380017 2.73264 0.0
-0.0412475 -2.65339 0.0 -0.123643 -2.64699 0.0 -0.205741 -2.63423 0.0 -0.287343 -2.61511 0.0 -0.368253 -2.58969 0.0 -0.448276 -2.55804 0.0 -0.527219 -2.52022 0.0 -0.604892 -2.47634 0.0 -0.681107 -2.42648 0.0 -0.755682 -2.37078 0.0 -0.828436 -2.30937 0.0 -0.899194 -2.2424 0.0 -0.967787 -2.17002 0.0 -1.03405 -2.09242 0.0 -1.09782 -2.00977 0.0 -1.15894 -1.92229 0.0 -1.21727 -1.83017 0.0 -1.27267 -1.73364 0.0 -1.32501 -1.63294 0.0 -1.37415 -1.5283 0.0 -1.41998 -1.41998 0.0 -1.46239 -1.30824 0.0 -1.50128 -1.19335 0.0 -1.53655 -1.07559 0.0 -1.56812 -0.955228 0.0 -1.59591 -0.83257 0.0 -1.61986 -0.707905 0.0 -1.63991 -0.581535 0.0 -1.656 -0.453765 0.0 -1.6681 -0.324901 0.0 -1.67619 -0.195254 0.0 -1.68024 -0.065137 0.0 -1.68024 0.065137 0.0 -1.67619 0.195254 0.0 -1.6681 0.324901 0.0 -1.656 0.453765 0.0 -1.63991 0.581535 0.0 -1.61986 0.707905 0.0 -1.59591 0.83257 0.0 -1.56812 0.955228 0.0 -1.53655 1.07559 0.0 -1.50128 1.19335 0.0 -1.46239 1.30824 0.0 -1.41998 1.41998 0.0 -1.37415 1.5283 0.0 -1.32501 1.63294 0.0 -1.27267 1.73364 0.0 -1.21727 1.83017 0.0 -1.15894 1.92229 0.0 -1.09782 2.00977 0.0 -1.03405 2.09242 0.0 -0.967787 2.17002 0.0 -0.899194 2.2424 0.0 -0.828436 2.30937 0.0 -0.755682 2.37078 0.0 -0.681107 2.42648 0.0 -0.604892 2.47634 0.0 -0.527219 2.52022 0.0 -0.448276 2.55804 0.0 -0.368253 2.58969 0.0 -0.287343 2.61511 0.0 -0.205741 2.63423 0.0 -0.123643 2.64699 0.0 -0.0412475 2.65339 0.0
-0.044394 -2.56774 0.0 -0.133075 -2.56156 0.0 -0.221435 -2.5492 0.0 -0.309262 -2.5307 0.0 -0.396344 -2.50611 0.0 -0.482471 -2.47548 0.0 -0.567436 -2.43888 0.0 -0.651034 -2.39641 0.0 -0.733063 -2.34816 0.0 -0.813327 -2.29426 0.0 -0.891631 -2.23483 0.0 -0.967787 -2.17002 0.0 -1.04161 -2.09998 0.0 -1.11293 -2.02488 0.0 -1.18156 -1.9449 0.0 -1.24735 -1.86024 0.0 -1.31013 -1.7711 0.0 -1.36976 -1.67769 0.0 -1.42608 -1.58023 0.0 -1.47897 -1.47897 0.0 -1.5283 -1.37415 0.0 -1.57395 -1.26602 0.0 -1.6158 -1.15483 0.0 -1.65376 -1.04087 0.0 -1.68774 -0.924397 0.0 -1.71765 -0.805697 0.0 -1.74343 -0.685057 0.0 -1.765 -0.562766 0.0 -1.78232 -0.439119 0.0 -1.79535 -0.314414 0.0 -1.80405 -0.188952 0.0 -1.80841 -0.0630346 0.0 -1.80841 0.0630346 0.0 -1.80405 0.188952 0.0 -1.79535 0.314414 0.0 -1.78232 0.439119 0.0 -1.765 0.562766 0.0 -1.74343 0.685057 0.0 -1.71765 0.805697 0.0 -1.68774 0.924397 0.0 -1.65376 1.04087 0.0 -1.6158 1.15483 0.0 -1.57395 1.26602 0.0 -1.5283 1.37415 0.0 -1.47897 1.47897 0.0 -1.42608 1.58023 0.0 -1.36976 1.67769 0.0 -1.31013 1.7711 0.0 -1.24735 1.86024 0.0 -1.18156 1.9449 0.0 -1.11293 2.02488 0.0 -1.04161 2.09998 0.0 -0.967787 2.17002 0.0 -0.891631 2.23483 0.0 -0.813327 2.29426 0.0 -0.733063 2.34816 0.0 -0.651034 2.39641 0.0 -0.567436 2.43888 0.0 -0.482471 2.47548 0.0 -0.396344 2.50611 0.0 -0.309262 2.5307 0.0 -0.221435 2.5492 0.0 -0.133075 2.56156 0.0 -0.044394 2.56774 0.0
-0.0474335 -2.47592 0.0 -0.142186 -2.46995 0.0 -0.236596 -2.45804 0.0 -0.330436 -2.4402 0.0 -0.42348 -2.41649 0.0 -0.515504 -2.38695 0.0 -0.606286 -2.35166 0.0 -0.695608 -2.31071 0.0 -0.783253 -2.26419 0.0 -0.869012 -2.21222 0.0 -0.952677 -2.15491 0.0 -1.03405 -2.09242 0.0 -1.11293 -2.02488 0.0 -1.18912 -1.95247 0.0 -1.26246 -1.87535 0.0 -1.33275 -1.79372 0.0 -1.39983 -1.70776 0.0 -1.46354 -1.61769 0.0 -1.52372 -1.52372 0.0 -1.58023 -1.42608 0.0 -1.63294 -1.32501 0.0 -1.68171 -1.22074 0.0 -1.72643 -1.11354 0.0 -1.76699 -1.00365 0.0 -1.8033 -0.891339 0.0 -1.83525 -0.776884 0.0 -1.86279 -0.660558 0.0 -1.88584 -0.54264 0.0 -1.90435 -0.423415 0.0 -1.91827 -0.30317 0.0 -1.92757 -0.182195 0.0 -1.93222 -0.0607804 0.0 -1.93222 0.0607804 0.0 -1.92757 0.182195 0.0 -1.91827 0.30317 0.0 -1.90435 0.423415 0.0 -1.88584 0.54264 0.0 -1.86279 0.660558 0.0 -1.83525 0.776884 0.0 -1.8033 0.891339 0.0 -1.76699 1.00365 0.0 -1.72643 1.11354 0.0 -1.68171 1.22074 0.0 -1.63294 1.32501 0.0 -1.58023 1.42608 0.0 -1.52372 1.52372 0.0 -1.46354 1.61769 0.0 -1.39983 1.70776 0.0 -1.33275 1.79372 0.0 -1.26246 1.87535 0.0 -1.18912 1.95247 0.0 -1.11293 2.02488 0.0 -1.03405 2.09242 0.0 -0.952677 2.15491 0.0 -0.869012 2.21222 0.0 -0.783253 2.26419 0.0 -0.695608 2.31071 0.0 -0.606286 2.35166 0.0 -0.515504 2.38695 0.0 -0.42348 2.41649 0.0 -0.330436 2.4402 0.0 -0.236596 2.45804 0.0 -0.142186 2.46995 0.0 -0.0474335 2.47592 0.0
-0.0503587 -2.37813 0.0 -0.150955 -2.3724 0.0 -0.251187 -2.36095 0.0 -0.350814 -2.34382 0.0 -0.449596 -2.32104 0.0 -0.547295 -2.29267 0.0 -0.643676 -2.25878 0.0 -0.738506 -2.21944 0.0 -0.831556 -2.17476 0.0 -0.922604 -2.12484 0.0 -1.01143 -2.0698 0.0 -1.09782 -2.00977 0.0 -1.18156 -1.9449 0.0 -1.26246 -1.87535 0.0 -1.34031 -1.80128 0.0 -1.41494 -1.72287 0.0 -1.48616 -1.64031 0.0 -1.55379 -1.55379 0.0 -1.61769 -1.46354 0.0 -1.67769 -1.36976 0.0 -1.73364 -1.27267 0.0 -1.78542 -1.17253 0.0 -1.8329 -1.06955 0.0 -1.87596 -0.964005 0.0 -1.9145 -0.856133 0.0 -1.94843 -0.746199 0.0 -1.97767 -0.634467 0.0 -2.00214 -0.521207 0.0 -2.02179 -0.406691 0.0 -2.03657 -0.291196 0.0 -2.04644 -0.174998 0.0 -2.05138 -0.0583797 0.0 -2.05138 0.0583797 0.0 -2.04644 0.174998 0.0 -2.03657 0.291196 0.0 -2.02179 0.406691 0.0 -2.00214 0.521207 0.0 -1.97767 0.634467 0.0 -1.94843 0.746199 0.0 -1.9145 0.856133 0.0 -1.87596 0.964005 0.0 -1.8329 1.06955 0.0 -1.78542 1.17253 0.0 -1.73364 1.27267 0.0 -1.67769 1.36976 0.0 -1.61769 1.46354 0.0 -1.55379 1.55379 0.0 -1.48616 1.64031 0.0 -1.41494 1.72287 0.0 -1.34031 1.80128 0.0 -1.26246 1.87535 0.0 -1.18156 1.9449 0.0 -1.09782 2.00977 0.0 -1.01143 2.0698 0.0 -0.922604 2.12484 0.0 -0.831556 2.17476 0.0 -0.738506 2.21944 0.0 -0.643676 2.25878 0.0 -0.547295 2.29267 0.0 -0.449596 2.32104 0.0 -0.350814 2.34382 0.0 -0.251187 2.36095 0.0 -0.150955 2.3724 0.0 -0.0503587 2.37813 0.0
-0.0531626 -2.2746 0.0 -0.15936 -2.26912 0.0 -0.265173 -2.25818 0.0 -0.370347 -2.24179 0.0 -0.474629 -2.22 0.0 -0.577768 -2.19287 0.0 -0.679515 -2.16045 0.0 -0.779625 -2.12283 0.0 -0.877856 -2.08009 0.0 -0.973973 -2.03234 0.0 -1.06774 -1.9797 0.0 -1.15894 -1.92229 0.0 -1.24735 -1.86024 0.0 -1.33275 -1.79372 0.0 -1.41494 -1.72287 0.0 -1.49372 -1.64787 0.0 -1.5689 -1.5689 0.0 -1.64031 -1.48616 0.0 -1.70776 -1.39983 0.0 -1.7711 -1.31013 0.0 -1.83017 -1.21727 0.0 -1.88483 -1.12149 0.0 -1.93495 -1.023 0.0 -1.98041 -0.922041 0.0 -2.0211 -0.818865 0.0 -2.05692 -0.713717 0.0 -2.08779 -0.606849 0.0 -2.11362 -0.498519 0.0 -2.13436 -0.388988 0.0 -2.14996 -0.27852 0.0 -2.16039 -0.167381 0.0 -2.1656 -0.0558384 0.0 -2.1656 0.0558384 0.0 -2.16039 0.167381 0.0 -2.14996 0.27852 0.0 -2.13436 0.388988 0.0 -2.11362 0.498519 0.0 -2.08779 0.606849 0.0 -2.05692 0.713717 0.0 -2.0211 0.818865 0.0 -1.98041 0.922041 0.0 -1.93495 1.023 0.0 -1.88483 1.12149 0.0 -1.83017 1.21727 0.0 -1.7711 1.31013 0.0 -1.70776 1.39983 0.0 -1.64031 1.48616 0.0 -1.5689 1.5689 0.0 -1.49372 1.64787 0.0 -1.41494 1.72287 0.0 -1.33275 1.79372 0.0 -1.24735 1.86024 0.0 -1.15894 1.92229 0.0 -1.06774 1.9797 0.0 -0.973973 2.03234 0.0 -0.877856 2.08009 0.0 -0.779625 2.12283 0.0 -0.679515 2.16045 0.0 -0.577768 2.19287 0.0 -0.474629 2.22 0.0 -0.370347 2.24179 0.0 -0.265173 2.25818 0.0 -0.15936 2.26912 0.0 -0.0531626 2.2746 0.0
-0.0558384 -2.1656 0.0 -0.167381 -2.16039 0.0 -0.27852 -2.14996 0.0 -0.388988 -2.13436 0.0 -0.498519 -2.11362 0.0 -0.606849 -2.08779 0.0 -0.713717 -2.05692 0.0 -0.818865 -2.0211 0.0 -0.922041 -1.98041 0.0 -1.023 -1.93495 0.0 -1.12149 -1.88483 0.0 -1.21727 -1.83017 0.0 -1.31013 -1.7711 0.0 -1.39983 -1.70776 0.0 -1.48616 -1.64031 0.0 -1.5689 -1.5689 0.0 -1.64787 -1.49372 0.0 -1.72287 -1.41494 0.0 -1.79372 -1.33275 0.0 -1.86024 -1.24735 0.0 -1.92229 -1.15894 0.0 -1.9797 -1.06774 0.0 -2.03234 -0.973973 0.0 -2.08009 -0.877856 0.0 -2.12283 -0.779625 0.0 -2.16045 -0.679515 0.0 -2.19287 -0.577768 0.0 -2.22 -0.474629 0.0 -2.24179 -0.370347 0.0 -2.25818 -0.265173 0.0 -2.26912 -0.15936 0.0 -2.2746 -0.0531626 0.0 -2.2746 0.0531626 0.0 -2.26912 0.15936 0.0 -2.25818 0.265173 0.0 -2.24179 0.370347 0.0 -2.22 0.474629 0.0 -2.19287 0.577768 0.0 -2.16045 0.679515 0.0 -2.12283 0.779625 0.0 -2.08009 0.877856 0.0 -2.03234 0.973973 0.0 -1.9797 1.06774 0.0 -1.92229 1.15894 0.0 -1.86024 1.24735 0.0 -1.79372 1.33275 0.0 -1.72287 1.41494 0.0 -1.64787 1.49372 0.0 -1.5689 1.5689 0.0 -1.48616 1.64031 0.0 -1.39983 1.70776 0.0 -1.31013 1.7711 0.0 -1.21727 1.83017 0.0 -1.12149 1.88483 0.0 -1.023 1.93495 0.0 -0.922041 1.98041 0.0 -0.818865 2.0211 0.0 -0.713717 2.05692 0.0 -0.606849 2.08779 0.0 -0.498519 2.11362 0.0 -0.388988 2.13436 0.0 -0.27852 2.14996 0.0 -0.167381 2.16039 0.0 -0.0558384 2.1656 0.0
-0.0583797 -2.05138 0.0 -0.174998 -2.04644 0.0 -0.291196 -2.03657 0.0 -0.406691 -2.02179 0.0 -0.521207 -2.00214 0.0 -0.634467 -1.97767 0.0 -0.746199 -1.94843 0.0 -0.856133 -1.9145 0.0 -0.964005 -1.87596 0.0 -1.06955 -1.8329 0.0 -1.17253 -1.78542 0.0 -1.27267 -1.73364 0.0 -1.36976 -1.67769 0.0 -1.46354 -1.61769 0.0 -1.55379 -1.55379 0.0 -1.64031 -1.48616 0.0 -1.72287 -1.41494 0.0 -1.80128 -1.34031 0.0 -1.87535 -1.26246 0.0 -1.9449 -1.18156 0.0 -2.00977 -1.09782 0.0 -2.0698 -1.01143 0.0 -2.12484 -0.922604 0.0 -2.17476 -0.831556 0.0 -2.21944 -0.738506 0.0 -2.25878 -0.643676 0.0 -2.29267 -0.547295 0.0 -2.32104 -0.449596 0.0 -2.34382 -0.350814 0.0 -2.36095 -0.251187 0.0 -2.3724 -0.150955 0.0 -2.37813 -0.0503587 0.0 -2.37813 0.0503587 0.0 -2.3724 0.150955 0.0 -2.36095 0.251187 0.0 -2.34382 0.350814 0.0 -2.32104 0.449596 0.0 -2.29267 0.547295 0.0 -2.25878 0.643676 0.0 -2.21944 0.738506 0.0 -2.17476 0.831556 0.0 -2.12484 0.922604 0.0 -2.0698 1.01143 0.0 -2.00977 1.09782 0.0 -1.9449 1.18156 0.0 -1.87535 1.26246 0.0 -1.80128 1.34031 0.0 -1.72287 1.41494 0.0 -1.64031 1.48616 0.0 -1.55379 1.55379 0.0 -1.46354 1.61769 0.0 -1.36976 1.67769 0.0 -1.27267 1.73364 0.0 -1.17253 1.78542 0.0 -1.06955 1.8329 0.0 -0.964005 1.87596 0.0 -0.856133 1.9145 0.0 -0.746199 1.94843 0.0 -0.634467 1.97767 0.0 -0.521207 2.00214 0.0 -0.406691 2.02179 0.0 -0.291196 2.03657 0.0 -0.174998 2.04644 0.0 -0.0583797 2.05138 0.0
-0.0607804 -1.93222 0.0 -0.182195 -1.92757 0.0 -0.30317 -1.91827 0.0 -0.423415 -1.90435 0.0 -0.54264 -1.88584 0.0 -0.660558 -1.86279 0.0 -0.776884 -1.83525 0.0 -0.891339 -1.8033 0.0 -1.00365 -1.76699 0.0 -1.11354 -1.72643 0.0 -1.22074 -1.68171 0.0 -1.32501 -1.63294 0.0 -1.42608 -1.58023 0.0 -1.52372 -1.52372 0.0 -1.61769 -1.46354 0.0 -1.70776 -1.39983 0.0 -1.79372 -1.33275 0.0 -1.87535 -1.26246 0.0 -1.95247 -1.18912 0.0 -2.02488 -1.11293 0.0 -2.09242 -1.03405 0.0 -2.15491 -0.952677 0.0 -2.21222 -0.869012 0.0 -2.26419 -0.783253 0.0 -2.31071 -0.695608 0.0 -2.35166 -0.606286 0.0 -2.38695 -0.515504 0.0 -2.41649 -0.42348 0.0 -2.4402 -0.330436 0.0 -2.45804 -0.236596 0.0 -2.46995 -0.142186 0.0 -2.47592 -0.0474335 0.0 -2.47592 0.0474335 0.0 -2.46995 0.142186 0.0 -2.45804 0.236596 0.0 -2.4402 0.330436 0.0 -2.41649 0.42348 0.0 -2.38695 0.515504 0.0 -2.35166 0.606286 0.0 -2.31071 0.695608 0.0 -2.26419 0.783253 0.0 -2.21222 0.869012 0.0 -2.15491 0.952677 0.0 -2.09242 1.03405 0.0 -2.02488 1.11293 0.0 -1.95247 1.18912 0.0 -1.87535 1.26246 0.0 -1.79372 1.33275 0.0 -1.70776 1.39983 0.0 -1.61769 1.46354 0.0 -1.52372 1.52372 0.0 -1.42608 1.58023 0.0 -1.32501 1.63294 0.0 -1.22074 1.68171 0.0 -1.11354 1.72643 0.0 -1.00365 1.76699 0.0 -0.891339 1.8033 0.0 -0.776884 1.83525 0.0 -0.660558 1.86279 0.0 -0.54264 1.88584 0.0 -0.423415 1.90435 0.0 -0.30317 1.91827 0.0 -0.182195 1.92757 0.0 -0.0607804 1.93222 0.0
-0.0630346 -1.80841 0.0 -0.188952 -1.80405 0.0 -0.314414 -1.79535 0.0 -0.439119 -1.78232 0.0 -0.562766 -1.765 0.0 -0.685057 -1.74343 0.0 -0.805697 -1.71765 0.0 -0.924397 -1.68774 0.0 -1.04087 -1.65376 0.0 -1.15483 -1.6158 0.0 -1.26602 -1.57395 0.0 -1.37415 -1.5283 0.0 -1.47897 -1.47897 0.0 -1.58023 -1.42608 0.0 -1.67769 -1.36976 0.0 -1.7711 -1.31013 0.0 -1.86024 -1.24735 0.0 -1.9449 -1.18156 0.0 -2.02488 -1.11293 0.0 -2.09998 -1.04161 0.0 -2.17002 -0.967787 0.0 -2.23483 -0.891631 0.0 -2.29426 -0.813327 0.0 -2.34816 -0.733063 0.0 -2.39641 -0.651034 0.0 -2.43888 -0.567436 0.0 -2.47548 -0.482471 0.0 -2.50611 -0.396344 0.0 -2.5307 -0.309262 0.0 -2.5492 -0.221435 0.0 -2.56156 -0.133075 0.0 -2.56774 -0.044394 0.0 -2.56774 0.044394 0.0 -2.56156 0.133075 0.0 -2.5492 0.221435 0.0 -2.5307 0.309262 0.0 -2.50611 0.396344 0.0 -2.47548 0.482471 0.0 -2.43888 0.567436 0.0 -2.39641 0.651034 0.0 -2.34816 0.733063 0.0 -2.29426 0.813327 0.0 -2.23483 0.891631 0.0 -2.17002 0.967787 0.0 -2.09998 1.04161 0.0 -2.02488 1.11293 0.0 -1.9449 1.18156 0.0 -1.86024 1.24735 0.0 -1.7711 1.31013 0.0 -1.67769 1.36976 0.0 -1.58023 1.42608 0.0 -1.47897 1.47897 0.0 -1.37415 1.5283 0.0 -1.26602 1.57395 0.0 -1.15483 1.6158 0.0 -1.04087 1.65376 0.0 -0.924397 1.68774 0.0 -0.805697 1.71765 0.0 -0.685057 1.74343 0.0 -0.562766 1.765 0.0 -0.439119 1.78232 0.0 -0.314414 1.79535 0.0 -0.188952 1.80405 0.0 -0.0630346 1.80841 0.0
-0.065137 -1.68024 0.0 -0.195254 -1.67619 0.0 -0.324901 -1.6681 0.0 -0.453765 -1.656 0.0 -0.581535 -1.63991 0.0 -0.707905 -1.61986 0.0 -0.83257 -1.59591 0.0 -0.955228 -1.56812 0.0 -1.07559 -1.53655 0.0 -1.19335 -1.50128 0.0 -1.30824 -1.46239 0.0 -1.41998 -1.41998 0.0 -1.5283 -1.37415 0.0 -1.63294 -1.32501 0.0 -1.73364 -1.27267 0.0 -1.83017 -1.21727 0.0 -1.92229 -1.15894 0.0 -2.00977 -1.09782 0.0 -2.09242 -1.03405 0.0 -2.17002 -0.967787 0.0 -2.2424 -0.899194 0.0 -2.30937 -0.828436 0.0 -2.37078 -0.755682 0.0 -2.42648 -0.681107 0.0 -2.47634 -0.604892 0.0 -2.52022 -0.527219 0.0 -2.55804 -0.448276 0.0 -2.58969 -0.368253 0.0 -2.61511 -0.287343 0.0 -2.63423 -0.205741 0.0 -2.64699 -0.123643 0.0 -2.65339 -0.0412475 0.0 -2.65339 0.0412475 0.0 -2.64699 0.123643 0.0 -2.63423 0.205741 0.0 -2.61511 0.287343 0.0 -2.58969 0.368253 0.0 -2.55804 0.448276 0.0 -2.52022 0.527219 0.0 -2.47634 0.604892 0.0 -2.42648 0.681107 0.0 -2.37078 0.755682 0.0 -2.30937 0.828436 0.0 -2.2424 0.899194 0.0 -2.17002 0.967787 0.0 -2.09242 1.03405 0.0 -2.00977 1.09782 0.0 -1.92229 1.15894 0.0 -1.83017 1.21727 0.0 -1.73364 1.27267 0.0 -1.63294 1.32501 0.0 -1.5283 1.37415 0.0 -1.41998 1.41998 0.0 -1.30824 1.46239 0.0 -1.19335 1.50128 0.0 -1.07559 1.53655 0.0 -0.955228 1.56812 0.0 -0.83257 1.59591 0.0 -0.707905 1.61986 0.0 -0.581535 1.63991 0.0 -0.453765 1.656 0.0 -0.324901 1.6681 0.0 -0.195254 1.67619 0.0 -0.065137 1.68024 0.0
-0.0670824 -1.54802 0.0 -0.201086 -1.54429 0.0 -0.334605 -1.53684 0.0 -0.467317 -1.52569 0.0 -0.598904 -1.51086 0.0 -0.729048 -1.49239 0.0 -0.857436 -1.47033 0.0 -0.983758 -1.44473 0.0 -1.10771 -1.41564 0.0 -1.22899 -1.38314 0.0 -1.34732 -1.34732 0.0 -1.46239 -1.30824 0.0 -1.57395 -1.26602 0.0 -1.68171 -1.22074 0.0 -1.78542 -1.17253 0.0 -1.88483 -1.12149 0.0 -1.9797 -1.06774 0.0 -2.0698 -1.01143 0.0 -2.15491 -0.952677 0.0 -2.23483 -0.891631 0.0 -2.30937 -0.828436 0.0 -2.37835 -0.763246 0.0 -2.44159 -0.696217 0.0 -2.49895 -0.62751 0.0 -2.5503 -0.557292 0.0 -2.5955 -0.485732 0.0 -2.63444 -0.413001 0.0 -2.66704 -0.339275 0.0 -2.69322 -0.264732 0.0 -2.7129 -0.189551 0.0 -2.72605 -0.113914 0.0 -2.73264 -0.0380017 0.0 -2.73264 0.0380017 0.0 -2.72605 0.113914 0.0 -2.7129 0.189551 0.0 -2.69322 0.264732 0.0 -2.66704 0.339275 0.0 -2.63444 0.413001 0.0 -2.5955 0.485732 0.0 -2.5503 0.557292 0.0 -2.49895 0.62751 0.0 -2.44159 0.696217 0.0 -2.37835 0.763246 0.0 -2.30937 0.828436 0.0 -2.23483 0.891631 0.0 -2.15491 0.952677 0.0 -2.0698 1.01143 0.0 -1.9797 1.06774 0.0 -1.88483 1.12149 0.0 -1.78542 1.17253 0.0 -1.68171 1.22074 0.0 -1.57395 1.26602 0.0 -1.46239 1.30824 0.0 -1.34732 1.34732 0.0 -1.22899 1.38314 0.0 -1.10771 1.41564 0.0 -0.983758 1.44473 0.0 -0.857436 1.47033 0.0 -0.729048 1.49239 0.0 -0.598904 1.51086 0.0 -0.467317 1.52569 0.0 -0.334605 1.53684 0.0 -0.201086 1.54429 0.0 -0.0670824 1.54802 0.0
-0.0688663 -1.41207 0.0 -0.206433 -1.40867 0.0 -0.343502 -1.40187 0.0 -0.479744 -1.3917 0.0 -0.61483 -1.37818 0.0 -0.748435 -1.36133 0.0 -0.880237 -1.3412 0.0 -1.00992 -1.31785 0.0 -1.13717 -1.29132 0.0 -1.26168 -1.26168 0.0 -1.38314 -1.22899 0.0 -1.50128 -1.19335 0.0 -1.6158 -1.15483 0.0 -1.72643 -1.11354 0.0 -1.8329 -1.06955 0.0 -1.93495 -1.023 0.0 -2.03234 -0.973973 0.0 -2.12484 -0.922604 0.0 -2.21222 -0.869012 0.0 -2.29426 -0.813327 0.0 -2.37078 -0.755682 0.0 -2.44159 -0.696217 0.0 -2.50652 -0.635074 0.0 -2.56541 -0.572402 0.0 -2.61811 -0.50835 0.0 -2.66452 -0.443074 0.0 -2.7045 -0.376731 0.0 -2.73796 -0.30948 0.0 -2.76483 -0.241483 0.0 -2.78504 -0.172905 0.0 -2.79854 -0.10391 0.0 -2.8053 -0.0346644 0.0 -2.8053 0.0346644 0.0 -2.79854 0.10391 0.0 -2.78504 0.172905 0.0 -2.76483 0.241483 0.0 -2.73796 0.30948 0.0 -2.7045 0.376731 0.0 -2.66452 0.443074 0.0 -2.61811 0.50835 0.0 -2.56541 0.572402 0.0 -2.50652 0.635074 0.0 -2.44159 0.696217 0.0 -2.37078 0.755682 0.0 -2.29426 0.813327 0.0 -2.21222 0.869012 0.0 -2.12484 0.922604 0.0 -2.03234 0.973973 0.0 -1.93495 1.023 0.0 -1.8329 1.06955 0.0 -1.72643 1.11354 0.0 -1.6158 1.15483 0.0 -1.50128 1.19335 0.0 -1.38314 1.22899 0.0 -1.26168 1.26168 0.0 -1.13717 1.29132 0.0 -1.00992 1.31785 0.0 -0.880237 1.3412 0.0 -0.748435 1.36133 0.0 -0.61483 1.37818 0.0 -0.479744 1.3917 0.0 -0.343502 1.40187 0.0 -0.206433 1.40867 0.0 -0.0688663 1.41207 0.0
-0.0704842 -1.27272 0.0 -0.211283 -1.26965 0.0 -0.351573 -1.26353 0.0 -0.491015 -1.25436 0.0 -0.629275 -1.24217 0.0 -0.766019 -1.22699 0.0 -0.900917 -1.20885 0.0 -1.03365 -1.1878 0.0 -1.16388 -1.16388 0.0 -1.29132 -1.13717 0.0 -1.41564 -1.10771 0.0 -1.53655 -1.07559 0.0 -1.65376 -1.04087 0.0 -1.76699 -1.00365 0.0 -1.87596 -0.964005 0.0 -1.98041 -0.922041 0.0 -2.08009 -0.877856 0.0 -2.17476 -0.831556 0.0 -2.26419 -0.783253 0.0 -2.34816 -0.733063 0.0 -2.42648 -0.681107 0.0 -2.49895 -0.62751 0.0 -2.56541 -0.572402 0.0 -2.62568 -0.515914 0.0 -2.67962 -0.458183 0.0 -2.72712 -0.399349 0.0 -2.76804 -0.339553 0.0 -2.80229 -0.278938 0.0 -2.82979 -0.217652 0.0 -2.85048 -0.155841 0.0 -2.86429 -0.0936553 0.0 -2.87121 -0.0312435 0.0 -2.87121 0.0312435 0.0 -2.86429 0.0936553 0.0 -2.85048 0.155841 0.0 -2.82979 0.217652 0.0 -2.80229 0.278938 0.0 -2.76804 0.339553 0.0 -2.72712 0.399349 0.0 -2.67962 0.458183 0.0 -2.62568 0.515914 0.0 -2.56541 0.572402 0.0 -2.49895 0.62751 0.0 -2.42648 0.681107 0.0 -2.34816 0.733063 0.0 -2.26419 0.783253 0.0 -2.17476 0.831556 0.0 -2.08009 0.877856 0.0 -1.98041 0.922041 0.0 -1.87596 0.964005 0.0 -1.76699 1.00365 0.0 -1.65376 1.04087 0.0 -1.53655 1.07559 0.0 -1.41564 1.10771 0.0 -1.29132 1.13717 0.0 -1.16388 1.16388 0.0 -1.03365 1.1878 0.0 -0.900917 1.20885 0.0 -0.766019 1.22699 0.0 -0.629275 1.24217 0.0 -0.491015 1.25436 0.0 -0.351573 1.26353 0.0 -0.211283 1.26965 0.0 -0.0704842 1.27272 0.0
-0.0719324 -1.1303 0.0 -0.215624 -1.12758 0.0 -0.358796 -1.12214 0.0 -0.501104 -1.114 0.0 -0.642204 -1.10317 0.0 -0.781757 -1.08969 0.0 -0.919427 -1.07358 0.0 -1.05488 -1.05488 0.0 -1.1878 -1.03365 0.0 -1.31785 -1.00992 0.0 -1.44473 -0.983758 0.0 -1.56812 -0.955228 0.0 -1.68774 -0.924397 0.0 -1.8033 -0.891339 0.0 -1.9145 -0.856133 0.0 -2.0211 -0.818865 0.0 -2.12283 -0.779625 0.0 -2.21944 -0.738506 0.0 -2.31071 -0.695608 0.0 -2.39641 -0.651034 0.0 -2.47634 -0.604892 0.0 -2.5503 -0.557292 0.0 -2.61811 -0.50835 0.0 -2.67962 -0.458183 0.0 -2.73468 -0.406913 0.0 -2.78315 -0.354662 0.0 -2.82491 -0.301557 0.0 -2.85986 -0.247725 0.0 -2.88793 -0.193297 0.0 -2.90904 -0.138403 0.0 -2.92314 -0.0831753 0.0 -2.9302 -0.0277474 0.0 -2.9302 0.0277474 0.0 -2.92314 0.0831753 0.0 -2.90904 0.138403 0.0 -2.88793 0.193297 0.0 -2.85986 0.247725 0.0 -2.82491 0.301557 0.0 -2.78315 0.354662 0.0 -2.73468 0.406913 0.0 -2.67962 0.458183 0.0 -2.61811 0.50835 0.0 -2.5503 0.557292 0.0 -2.47634 0.604892 0.0 -2.39641 0.651034 0.0 -2.31071 0.695608 0.0 -2.21944 0.738506 0.0 -2.12283 0.779625 0.0 -2.0211 0.818865 0.0 -1.9145 0.856133 0.0 -1.8033 0.891339 0.0 -1.68774 0.924397 0.0 -1.56812 0.955228 0.0 -1.44473 0.983758 0.0 -1.31785 1.00992 0.0 -1.1878 1.03365 0.0 -1.05488 1.05488 0.0 -0.919427 1.07358 0.0 -0.781757 1.08969 0.0 -0.642204 1.10317 0.0 -0.501104 1.114 0.0 -0.358796 1.12214 0.0 -0.215624 1.12758 0.0 -0.0719324 1.1303 0.0
-0.0732072 -0.985163 0.0 -0.219445 -0.98279 0.0 -0.365155 -0.978049 0.0 -0.509985 -0.970952 0.0 -0.653586 -0.961516 0.0 -0.795612 -0.949763 0.0 -0.935722 -0.935722 0.0 -1.07358 -0.919427 0.0 -1.20885 -0.900917 0.0 -1.3412 -0.880237 0.0 -1.47033 -0.857436 0.0 -1.59591 -0.83257 0.0 -1.71765 -0.805697 0.0 -1.83525 -0.776884 0.0 -1.94843 -0.746199 0.0 -2.05692 -0.713717 0.0 -2.16045 -0.679515 0.0 -2.25878 -0.643676 0.0 -2.35166 -0.606286 0.0 -2.43888 -0.567436 0.0 -2.52022 -0.527219 0.0 -2.5955 -0.485732 0.0 -2.66452 -0.443074 0.0 -2.72712 -0.399349 0.0 -2.78315 -0.354662 0.0 -2.83247 -0.309121 0.0 -2.87497 -0.262835 0.0 -2.91055 -0.215916 0.0 -2.93911 -0.168476 0.0 -2.9606 -0.120631 0.0 -2.97495 -0.072495 0.0 -2.98213 -0.0241844 0.0 -2.98213 0.0241844 0.0 -2.97495 0.072495 0.0 -2.9606 0.120631 0.0 -2.93911 0.168476 0.0 -2.91055 0.215916 0.0 -2.87497 0.262835 0.0 -2.83247 0.309121 0.0 -2.78315 0.354662 0.0 -2.72712 0.399349 0.0 -2.66452 0.443074 0.0 -2.5955 0.485732 0.0 -2.52022 0.527219 0.0 -2.43888 0.567436 0.0 -2.35166 0.606286 0.0 -2.25878 0.643676 0.0 -2.16045 0.679515 0.0 -2.05692 0.713717 0.0 -1.94843 0.746199 0.0 -1.83525 0.776884 0.0 -1.71765 0.805697 0.0 -1.59591 0.83257 0.0 -1.47033 0.857436 0.0 -1.3412 0.880237 0.0 -1.20885 0.900917 0.0 -1.07358 0.919427 0.0 -0.935722 0.935722 0.0 -0.795612 0.949763 0.0 -0.653586 0.961516 0.0 -0.509985 0.970952 0.0 -0.365155 0.978049 0.0 -0.219445 0.98279 0.0 -0.0732072 0.985163 0.0
-0.0743057 -0.83765 0.0 -0.222738 -0.835633 0.0 -0.370634 -0.831601 0.0 -0.517637 -0.825567 0.0 -0.663393 -0.817544 0.0 -0.807551 -0.807551 0.0 -0.949763 -0.795612 0.0 -1.08969 -0.781757 0.0 -1.22699 -0.766019 0.0 -1.36133 -0.748435 0.0 -1.49239 -0.729048 0.0 -1.61986 -0.707905 0.0 -1.74343 -0.685057 0.0 -1.86279 -0.660558 0.0 -1.97767 -0.634467 0.0 -2.08779 -0.606849 0.0 -2.19287 -0.577768 0.0 -2.29267 -0.547295 0.0 -2.38695 -0.515504 0.0 -2.47548 -0.482471 0.0 -2.55804 -0.448276 0.0 -2.63444 -0.413001 0.0 -2.7045 -0.376731 0.0 -2.76804 -0.339553 0.0 -2.82491 -0.301557 0.0 -2.87497 -0.262835 0.0 -2.91811 -0.223479 0.0 -2.95422 -0.183586 0.0 -2.98322 -0.143249 0.0 -3.00502 -0.102568 0.0 -3.01959 -0.06164 0.0 -3.02688 -0.0205632 0.0 -3.02688 0.0205632 0.0 -3.01959 0.06164 0.0 -3.00502 0.102568 0.0 -2.98322 0.143249 0.0 -2.95422 0.183586 0.0 -2.91811 0.223479 0.0 -2.87497 0.262835 0.0 -2.82491 0.301557 0.0 -2.76804 0.339553 0.0 -2.7045 0.376731 0.0 -2.63444 0.413001 0.0 -2.55804 0.448276 0.0 -2.47548 0.482471 0.0 -2.38695 0.515504 0.0 -2.29267 0.547295 0.0 -2.19287 0.577768 0.0 -2.08779 0.606849 0.0 -1.97767 0.634467 0.0 -1.86279 0.660558 0.0 -1.74343 0.685057 0.0 -1.61986 0.707905 0.0 -1.49239 0.729048 0.0 -1.36133 0.748435 0.0 -1.22699 0.766019 0.0 -1.08969 0.781757 0.0 -0.949763 0.795612 0.0 -0.807551 0.807551 0.0 -0.663393 0.817544 0.0 -0.517637 0.825567 0.0 -0.370634 0.831601 0.0 -0.222738 0.835633 0.0 -0.0743057 0.83765 0.0
-0.0752252 -0.68812 0.0 -0.225494 -0.686462 0.0 -0.37522 -0.68315 0.0 -0.524042 -0.678193 0.0 -0.671602 -0.671602 0.0 -0.817544 -0.663393 0.0 -0.961516 -0.653586 0.0 -1.10317 -0.642204 0.0 -1.24217 -0.629275 0.0 -1.37818 -0.61483 0.0 -1.51086 -0.598904 0.0 -1.63991 -0.581535 0.0 -1.765 -0.562766 0.0 -1.88584 -0.54264 0.0 -2.00214 -0.521207 0.0 -2.11362 -0.498519 0.0 -2.22 -0.474629 0.0 -2.32104 -0.449596 0.0 -2.41649 -0.42348 0.0 -2.50611 -0.396344 0.0 -2.58969 -0.368253 0.0 -2.66704 -0.339275 0.0 -2.73796 -0.30948 0.0 -2.80229 -0.278938 0.0 -2.85986 -0.247725 0.0 -2.91055 -0.215916 0.0 -2.95422 -0.183586 0.0 -2.99078 -0.150813 0.0 -3.02013 -0.117678 0.0 -3.04221 -0.0842586 0.0 -3.05695 -0.0506365 0.0 -3.06434 -0.0168924 0.0 -3.06434 0.0168924 0.0 -3.05695 0.0506365 0.0 -3.04221 0.0842586 0.0 -3.02013 0.117678 0.0 -2.99078 0.150813 0.0 -2.95422 0.183586 0.0 -2.91055 0.215916 0.0 -2.85986 0.247725 0.0 -2.80229 0.278938 0.0 -2.73796 0.30948 0.0 -2.66704 0.339275 0.0 -2.58969 0.368253 0.0 -2.50611 0.396344 0.0 -2.41649 0.42348 0.0 -2.32104 0.449596 0.0 -2.22 0.474629 0.0 -2.11362 0.498519 0.0 -2.00214 0.521207 0.0 -1.88584 0.54264 0.0 -1.765 0.562766 0.0 -1.63991 0.581535 0.0 -1.51086 0.598904 0.0 -1.37818 0.61483 0.0 -1.24217 0.629275 0.0 -1.10317 0.642204 0.0 -0.961516 0.653586 0.0 -0.817544 0.663393 0.0 -0.671602 0.671602 0.0 -0.524042 0.678193 0.0 -0.37522 0.68315 0.0 -0.225494 0.686462 0.0 -0.0752252 0.68812 0.0
-0.0759635 -0.536931 0.0 -0.227707 -0.535637 0.0 -0.378903 -0.533053 0.0 -0.529185 -0.529185 0.0 -0.678193 -0.524042 0.0 -0.825567 -0.517637 0.0 -0.970952 -0.509985 0.0 -1.114 -0.501104 0.0 -1.25436 -0.491015 0.0 -1.3917 -0.479744 0.0 -1.52569 -0.467317 0.0 -1.656 -0.453765 0.0 -1.78232 -0.439119 0.0 -1.90435 -0.423415 0.0 -2.02179 -0.406691 0.0 -2.13436 -0.388988 0.0 -2.24179 -0.370347 0.0 -2.34382 -0.350814 0.0 -2.4402 -0.330436 0.0 -2.5307 -0.309262 0.0 -2.61511 -0.287343 0.0 -2.69322 -0.264732 0.0 -2.76483 -0.241483 0.0 -2.82979 -0.217652 0.0 -2.88793 -0.193297 0.0 -2.93911 -0.168476 0.0 -2.98322 -0.143249 0.0 -3.02013 -0.117678 0.0 -3.04977 -0.0918224 0.0 -3.07206 -0.0657459 0.0 -3.08695 -0.039511 0.0 -3.09441 -0.0131809 0.0 -3.09441 0.0131809 0.0 -3.08695 0.039511 0.0 -3.07206 0.0657459 0.0 -3.04977 0.0918224 0.0 -3.02013 0.117678 0.0 -2.98322 0.143249 0.0 -2.93911 0.168476 0.0 -2.88793 0.193297 0.0 -2.82979 0.217652 0.0 -2.76483 0.241483 0.0 -2.69322 0.264732 0.0 -2.61511 0.287343 0.0 -2.5307 0.309262 0.0 -2.4402 0.330436 0.0 -2.34382 0.350814 0.0 -2.24179 0.370347 0.0 -2.13436 0.388988 0.0 -2.02179 0.406691 0.0 -1.90435 0.423415 0.0 -1.78232 0.439119 0.0 -1.656 0.453765 0.0 -1.52569 0.467317 0.0 -1.3917 0.479744 0.0 -1.25436 0.491015 0.0 -1.114 0.501104 0.0 -0.970952 0.509985 0.0 -0.825567 0.517637 0.0 -0.678193 0.524042 0.0 -0.529185 0.529185 0.0 -0.378903 0.533053 0.0 -0.227707 0.535637 0.0 -0.0759635 0.536931 0.0
-0.0765187 -0.384449 0.0 -0.229372 -0.383522 0.0 -0.381672 -0.381672 0.0 -0.533053 -0.378903 0.0 -0.68315 -0.37522 0.0 -0.831601 -0.370634 0.0 -0.978049 -0.365155 0.0 -1.12214 -0.358796 0.0 -1.26353 -0.351573 0.0 -1.40187 -0.343502 0.0 -1.53684 -0.334605 0.0 -1.6681 -0.324901 0.0 -1.79535 -0.314414 0.0 -1.91827 -0.30317 0.0 -2.03657 -0.291196 0.0 -2.14996 -0.27852 0.0 -2.25818 -0.265173 0.0 -2.36095 -0.251187 0.0 -2.45804 -0.236596 0.0 -2.5492 -0.221435 0.0 -2.63423 -0.205741 0.0 -2.7129 -0.189551 0.0 -2.78504 -0.172905 0.0 -2.85048 -0.155841 0.0 -2.90904 -0.138403 0.0 -2.9606 -0.120631 0.0 -3.00502 -0.102568 0.0 -3.04221 -0.0842586 0.0 -3.07206 -0.0657459 0.0 -3.09452 -0.0470748 0.0 -3.10952 -0.0282903 0.0 -3.11703 -0.00943768 0.0 -3.11703 0.00943768 0.0 -3.10952 0.0282903 0.0 -3.09452 0.0470748 0.0 -3.07206 0.0657459 0.0 -3.04221 0.0842586 0.0 -3.00502 0.102568 0.0 -2.9606 0.120631 0.0 -2.90904 0.138403 0.0 -2.85048 0.155841 0.0 -2.78504 0.172905 0.0 -2.7129 0.189551 0.0 -2.63423 0.205741 0.0 -2.5492 0.221435 0.0 -2.45804 0.236596 0.0 -2.36095 0.251187 0.0 -2.25818 0.265173 0.0 -2.14996 0.27852 0.0 -2.03657 0.291196 0.0 -1.91827 0.30317 0.0 -1.79535 0.314414 0.0 -1.6681 0.324901 0.0 -1.53684 0.334605 0.0 -1.40187 0.343502 0.0 -1.26353 0.351573 0.0 -1.12214 0.358796 0.0 -0.978049 0.365155 0.0 -0.831601 0.370634 0.0 -0.68315 0.37522 0.0 -0.533053 0.378903 0.0 -0.381672 0.381672 0.0 -0.229372 0.383522 0.0 -0.0765187 0.384449 0.0
-0.0768896 -0.23104 0.0 -0.230484 -0.230484 0.0 -0.383522 -0.229372 0.0 -0.535637 -0.227707 0.0 -0.686462 -0.225494 0.0 -0.835633 -0.222738 0.0 -0.98279 -0.219445 0.0 -1.12758 -0.215624 0.0 -1.26965 -0.211283 0.0 -1.40867 -0.206433 0.0 -1.54429 -0.201086 0.0 -1.67619 -0.195254 0.0 -1.80405 -0.188952 0.0 -1.92757 -0.182195 0.0 -2.04644 -0.174998 0.0 -2.16039 -0.167381 0.0 -2.26912 -0.15936 0.0 -2.3724 -0.150955 0.0 -2.46995 -0.142186 0.0 -2.56156 -0.133075 0.0 -2.64699 -0.123643 0.0 -2.72605 -0.113914 0.0 -2.79854 -0.10391 0.0 -2.86429 -0.0936553 0.0 -2.92314 -0.0831753 0.0 -2.97495 -0.072495 0.0 -3.01959 -0.06164 0.0 -3.05695 -0.0506365 0.0 -3.08695 -0.039511 0.0 -3.10952 -0.0282903 0.0 -3.12459 -0.0170015 0.0 -3.13214 -0.00567172 0.0 -3.13214 0.00567172 0.0 -3.12459 0.0170015 0.0 -3.10952 0.0282903 0.0 -3.08695 0.039511 0.0 -3.05695 0.0506365 0.0 -3.01959 0.06164 0.0 -2.97495 0.072495 0.0 -2.92314 0.0831753 0.0 -2.86429 0.0936553 0.0 -2.79854 0.10391 0.0 -2.72605 0.113914 0.0 -2.64699 0.123643 0.0 -2.56156 0.133075 0.0 -2.46995 0.142186 0.0 -2.3724 0.150955 0.0 -2.26912 0.15936 0.0 -2.16039 0.167381 0.0 -2.04644 0.174998 0.0 -1.92757 0.182195 0.0 -1.80405 0.188952 0.0 -1.67619 0.195254 0.0 -1.54429 0.201086 0.0 -1.40867 0.206433 0.0 -1.26965 0.211283 0.0 -1.12758 0.215624 0.0 -0.98279 0.219445 0.0 -0.835633 0.222738 0.0 -0.686462 0.225494 0.0 -0.535637 0.227707 0.0 -0.383522 0.229372 0.0 -0.230484 0.230484 0.0 -0.0768896 0.23104 0.0
-0.0770753 -0.0770753 0.0 -0.23104 -0.0768896 0.0 -0.384449 -0.0765187 0.0 -0.536931 -0.0759635 0.0 -0.68812 -0.0752252 0.0 -0.83765 -0.0743057 0.0 -0.985163 -0.0732072 0.0 -1.1303 -0.0719324 0.0 -1.27272 -0.0704842 0.0 -1.41207 -0.0688663 0.0 -1.54802 -0.0670824 0.0 -1.68024 -0.065137 0.0 -1.80841 -0.0630346 0.0 -1.93222 -0.0607804 0.0 -2.05138 -0.0583797 0.0 -2.1656 -0.0558384 0.0 -2.2746 -0.0531626 0.0 -2.37813 -0.0503587 0.0 -2.47592 -0.0474335 0.0 -2.56774 -0.044394 0.0 -2.65339 -0.0412475 0.0 -2.73264 -0.0380017 0.0 -2.8053 -0.0346644 0.0 -2.87121 -0.0312435 0.0 -2.9302 -0.0277474 0.0 -2.98213 -0.0241844 0.0 -3.02688 -0.0205632 0.0 -3.06434 -0.0168924 0.0 -3.09441 -0.0131809 0.0 -3.11703 -0.00943768 0.0 -3.13214 -0.00567172 0.0 -3.1397 -0.00189209 0.0 -3.1397 0.00189209 0.0 -3.13214 0.00567172 0.0 -3.11703 0.00943768 0.0 -3.09441 0.0131809 0.0 -3.06434 0.0168924 0.0 -3.02688 0.0205632 0.0 -2.98213 0.0241844 0.0 -2.9302 0.0277474 0.0 -2.87121 0.0312435 0.0 -2.8053 0.0346644 0.0 -2.73264 0.0380017 0.0 -2.65339 0.0412475 0.0 -2.56774 0.044394 0.0 -2.47592 0.0474335 0.0 -2.37813 0.0503587 0.0 -2.2746 0.0531626 0.0 -2.1656 0.0558384 0.0 -2.05138 0.0583797 0.0 -1.93222 0.0607804 0.0 -1.80841 0.0630346 0.0 -1.68024 0.065137 0.0 -1.54802 0.0670824 0.0 -1.41207 0.0688663 0.0 -1.27272 0.0704842 0.0 -1.1303 0.0719324 0.0 -0.985163 0.0732072 0.0 -0.83765 0.0743057 0.0 -0.68812 0.0752252 0.0 -0.536931 0.0759635 0.0 -0.384449 0.0765187 0.0 -0.23104 0.0768896 0.0 -0.0770753 0.0770753 0.0
  </DataArray>
</CellData>
</Piece>
</ImageData>
</VTKFile>
